anvil-robotics/anvil-embodied-ai/debug_logs/run1.csv
t,target_follower_l_joint1,target_follower_l_joint2,target_follower_l_joint3,target_follower_l_joint4,target_follower_l_joint5,target_follower_l_joint6,target_follower_l_joint7,target_grip,current_follower_l_joint1,current_follower_l_joint2,current_follower_l_joint3,current_follower_l_joint4,current_follower_l_joint5,current_follower_l_joint6,current_follower_l_joint7,current_grip
1777067789.6011646,-0.0004076659679412842,0.7060512900352478,-0.010348737239837646,-0.3434913158416748,0.16393119096755981,2.0372159481048584,0.06119708716869354,0.049734294414520264,-0.0207904173342488,-0.1623178454261076,0.013923857480735435,1.59246967269398,-0.007438773174639479,-0.005149919890135024,-0.032997634851605895,0.044784668665929554
1777067789.6037629,-0.000322878360748291,0.7060512900352478,0.025408029556274414,-0.31725212931632996,0.14696788787841797,1.9966309070587158,0.01711001992225647,0.04903655052185059,-0.0207904173342488,-0.1623178454261076,0.013923857480735435,1.59246967269398,-0.007438773174639479,-0.005149919890135024,-0.032997634851605895,0.044784668665929554
1777067789.636749,0.0063672661781311035,0.7060512900352478,-0.015263617038726807,-0.2851704955101013,0.15405255556106567,2.0063767433166504,0.022467896342277527,0.04917497038841248,-0.0207904173342488,-0.1619363698786902,0.013923857480735435,1.59246967269398,-0.007438773174639479,-0.005149919890135024,-0.032997634851605895,0.044784668665929554
1777067789.6697598,0.002646118402481079,0.7060512900352478,-0.007574737071990967,-0.3077651858329773,0.15941452980041504,1.984696388244629,0.0478789359331131,0.049218598008155826,-0.0207904173342488,-0.1623178454261076,0.013923857480735435,1.59246967269398,-0.007438773174639479,-0.005149919890135024,-0.032997634851605895,0.044784668665929554
1777067789.7029724,-0.0004463493824005127,0.7060512900352478,0.002732574939727783,-0.28863778710365295,0.16784918308258057,1.99721097946167,0.052970439195632935,0.049966570734977726,-0.0207904173342488,-0.1619363698786902,0.013923857480735435,1.59246967269398,-0.007438773174639479,-0.005149919890135024,-0.032997634851605895,0.044784668665929554
1777067789.7367191,0.0007298290729522705,0.7060512900352478,0.005167722702026367,-0.2738860845565796,0.1602480411529541,1.983086347579956,0.05473479628562927,0.05,-0.0207904173342488,-0.1623178454261076,0.013923857480735435,1.59246967269398,-0.007438773174639479,-0.005149919890135024,-0.032997634851605895,0.044784668665929554
1777067789.7697542,-0.0023254454135894775,0.7060512900352478,-0.009214937686920166,-0.2763582170009613,0.16182374954223633,1.980979323387146,0.057062551379203796,0.04996152818202973,-0.0207904173342488,-0.1619363698786902,0.013923857480735435,1.59246967269398,-0.007438773174639479,-0.005149919890135024,-0.032997634851605895,0.044784668665929554
1777067789.8030946,-0.00709959864616394,0.7060512900352478,-0.005634486675262451,-0.26691144704818726,0.1563507318496704,1.96707284450531,0.06340615451335907,0.05,-0.0207904173342488,-0.1619363698786902,0.013923857480735435,1.59246967269398,-0.007438773174639479,-0.005149919890135024,-0.032997634851605895,0.044784668665929554
1777067789.836807,-0.008999913930892944,0.7060512900352478,-0.012164890766143799,-0.25930923223495483,0.15583741664886475,1.9712837934494019,0.06060902774333954,0.05,-0.0207904173342488,-0.1619363698786902,0.013923857480735435,1.59246967269398,-0.007438773174639479,-0.005149919890135024,-0.032997634851605895,0.044784668665929554
1777067789.8697531,-0.012275934219360352,0.7060512900352478,-0.0038323402404785156,-0.26089227199554443,0.15696096420288086,1.956168532371521,0.061880216002464294,0.05,-0.0207904173342488,-0.1623178454261076,0.013923857480735435,1.59246967269398,-0.007438773174639479,-0.005149919890135024,-0.032997634851605895,0.044784668665929554
1777067789.9029615,-0.015040040016174316,0.7060512900352478,-0.009248197078704834,-0.25111356377601624,0.1483219861984253,1.9531712532043457,0.06157498061656952,0.04971173703670502,-0.0207904173342488,-0.1623178454261076,0.013923857480735435,1.59246967269398,-0.007438773174639479,-0.005149919890135024,-0.032997634851605895,0.044784668665929554
1777067789.9368262,-0.017915576696395874,0.7060512900352478,-0.00929349660873413,-0.24836251139640808,0.14641296863555908,1.940571665763855,0.07725341618061066,0.05,-0.0207904173342488,-0.1623178454261076,0.013923857480735435,1.59246967269398,-0.007438773174639479,-0.005149919890135024,-0.032997634851605895,0.044784668665929554
1777067789.9697626,-0.021135032176971436,0.7060512900352478,-0.005977749824523926,-0.24769824743270874,0.14071202278137207,1.9509391784667969,0.06945721805095673,0.05,-0.0207904173342488,-0.1619363698786902,0.013923857480735435,1.59246967269398,-0.007438773174639479,-0.005149919890135024,-0.032997634851605895,0.044784668665929554
1777067790.0030591,-0.025270700454711914,0.7060512900352478,0.0004916191101074219,-0.24547699093818665,0.14477258920669556,1.9442930221557617,0.0734463781118393,0.04998796880245209,-0.0207904173342488,-0.1623178454261076,0.013923857480735435,1.59246967269398,-0.007438773174639479,-0.005149919890135024,-0.032997634851605895,0.044784668665929554
1777067790.0367267,-0.02254590392112732,0.7060512900352478,0.0006101727485656738,-0.2463374137878418,0.13867467641830444,1.9279533624649048,0.07734234631061554,0.04980609714984894,-0.0207904173342488,-0.1623178454261076,0.013923857480735435,1.59246967269398,-0.007438773174639479,-0.005149919890135024,-0.032997634851605895,0.044784668665929554
1777067790.0699537,-0.0271187424659729,0.7060512900352478,0.001037895679473877,-0.2465636134147644,0.1372489333152771,1.9164915084838867,0.0867772251367569,0.05,-0.0207904173342488,-0.1623178454261076,0.013923857480735435,1.59246967269398,-0.007438773174639479,-0.005149919890135024,-0.032997634851605895,0.044784668665929554
1777067790.103021,-0.027358174324035645,0.7060512900352478,0.003414154052734375,-0.24685701727867126,0.14130377769470215,1.9193164110183716,0.08051992952823639,0.05,-0.0207904173342488,-0.1623178454261076,0.013923857480735435,1.59246967269398,-0.007438773174639479,-0.005149919890135024,-0.032997634851605895,0.044784668665929554
1777067790.1369808,-0.03204703330993652,0.7060512900352478,0.006782352924346924,-0.24645739793777466,0.1301904320716858,1.9191386699676514,0.08025719225406647,0.05,-0.0207904173342488,-0.1623178454261076,0.013923857480735435,1.59246967269398,-0.007438773174639479,-0.005149919890135024,-0.032997634851605895,0.044784668665929554
1777067790.1697593,-0.030749410390853882,0.7060512900352478,-0.0008839964866638184,-0.24072489142417908,0.12607502937316895,1.922134518623352,0.0807570070028305,0.049708557128906254,-0.02040894178683139,-0.1619363698786902,0.013923857480735435,1.59246967269398,-0.007438773174639479,-0.005149919890135024,-0.032997634851605895,0.044784668665929554
1777067790.2031565,-0.03583142161369324,0.7060512900352478,-0.0011860132217407227,-0.2424027919769287,0.12310349941253662,1.9089735746383667,0.08338315784931183,0.05,-0.0207904173342488,-0.1623178454261076,0.013923857480735435,1.59246967269398,-0.007438773174639479,-0.005149919890135024,-0.032997634851605895,0.044784668665929554
1777067790.23702,-0.037373512983322144,0.7060512900352478,-0.000616610050201416,-0.24145016074180603,0.12597137689590454,1.9059745073318481,0.07874248921871185,0.049953097105026247,-0.0207904173342488,-0.1623178454261076,0.013923857480735435,1.59246967269398,-0.007438773174639479,-0.005149919890135024,-0.032997634851605895,0.044784668665929554
1777067790.2697124,-0.039003580808639526,0.7060512900352478,-0.0034386515617370605,-0.24010685086250305,0.12075310945510864,1.9025413990020752,0.08604304492473602,0.05,-0.0207904173342488,-0.1619363698786902,0.013923857480735435,1.59246967269398,-0.007438773174639479,-0.005149919890135024,-0.032997634851605895,0.044784668665929554
1777067790.3030188,-0.03863206505775452,0.7060512900352478,-0.0005339384078979492,-0.23645898699760437,0.12455207109451294,1.916870355606079,0.07674239575862885,0.05,-0.0207904173342488,-0.1619363698786902,0.013923857480735435,1.59246967269398,-0.007438773174639479,-0.005149919890135024,-0.032997634851605895,0.044784668665929554
1777067790.3368917,-0.042016565799713135,0.7060512900352478,-0.004441499710083008,-0.23639535903930664,0.11428701877593994,1.9048365354537964,0.08377934992313385,0.05,-0.0207904173342488,-0.1619363698786902,0.013923857480735435,1.59246967269398,-0.007438773174639479,-0.005149919890135024,-0.032997634851605895,0.044784668665929554
1777067790.3696969,-0.04509809613227844,0.7060512900352478,-0.009509027004241943,-0.22799533605575562,0.11474817991256714,1.9178005456924438,0.07757176458835602,0.05,-0.0207904173342488,-0.1619363698786902,0.013923857480735435,1.59246967269398,-0.007438773174639479,-0.005149919890135024,-0.032997634851605895,0.044784668665929554
1777067790.4030175,-0.04750511050224304,0.7060512900352478,-0.010639667510986328,-0.22925454378128052,0.10535740852355957,1.8982716798782349,0.07609494030475616,0.05,-0.0207904173342488,-0.1619363698786902,0.013923857480735435,1.59246967269398,-0.007438773174639479,-0.005149919890135024,-0.032997634851605895,0.044784668665929554
1777067790.4370859,-0.04866546392440796,0.6992312073707581,-0.014812827110290527,-0.21844834089279175,0.1080663800239563,1.8936065435409546,0.07369117438793182,0.04971236288547516,-0.0207904173342488,-0.1619363698786902,0.013923857480735435,1.59246967269398,-0.007438773174639479,-0.005149919890135024,-0.032997634851605895,0.044784668665929554
1777067790.469777,-0.05180448293685913,0.7043618559837341,-0.01180422306060791,-0.22705316543579102,0.09634965658187866,1.8963251113891602,0.07841239869594574,0.05,-0.0207904173342488,-0.1623178454261076,0.013923857480735435,1.59246967269398,-0.007438773174639479,-0.005149919890135024,-0.032997634851605895,0.044784668665929554
1777067790.5030482,-0.05098080635070801,0.69282466173172,-0.008769810199737549,-0.22106444835662842,0.102719247341156,1.9053902626037598,0.07307137548923492,0.05,-0.0207904173342488,-0.1623178454261076,0.013923857480735435,1.59246967269398,-0.007438773174639479,-0.005149919890135024,-0.032997634851605895,0.044784668665929554
1777067790.536996,-0.05596032738685608,0.7005453705787659,-0.009900808334350586,-0.22815954685211182,0.10441571474075317,1.8918594121932983,0.07134144008159637,0.05,-0.0207904173342488,-0.1623178454261076,0.013923857480735435,1.59246967269398,-0.007438773174639479,-0.005149919890135024,-0.032997634851605895,0.044784668665929554
1777067790.569701,-0.05318516492843628,0.6896881461143494,-0.0064637064933776855,-0.22151100635528564,0.10010546445846558,1.9013922214508057,0.0790211409330368,0.04988780617713928,-0.0207904173342488,-0.1623178454261076,0.013923857480735435,1.59246967269398,-0.007438773174639479,-0.005149919890135024,-0.032997634851605895,0.044784668665929554
1777067790.602988,-0.05826127529144287,0.7007007002830505,-0.00978851318359375,-0.22593790292739868,0.0997360348701477,1.8918325901031494,0.07349605858325958,0.05,-0.0207904173342488,-0.1623178454261076,0.013923857480735435,1.59246967269398,-0.007438773174639479,-0.005149919890135024,-0.032997634851605895,0.044784668665929554
1777067790.6370149,-0.0593237578868866,0.6927220225334167,-0.008574128150939941,-0.22305476665496826,0.09474241733551025,1.8999582529067993,0.06967218220233917,0.04977007508277893,-0.02040894178683139,-0.1623178454261076,0.013923857480735435,1.59246967269398,-0.007438773174639479,-0.005149919890135024,-0.032997634851605895,0.044784668665929554
1777067790.6696854,-0.061717450618743896,0.6915701031684875,-0.00965869426727295,-0.22433149814605713,0.09179508686065674,1.8935009241104126,0.06796173751354218,0.05,-0.0207904173342488,-0.1619363698786902,0.013923857480735435,1.59246967269398,-0.007438773174639479,-0.005149919890135024,-0.032997634851605895,0.044784668665929554
1777067790.703183,-0.06245929002761841,0.6855912804603577,-0.013033747673034668,-0.21776467561721802,0.09013867378234863,1.9050148725509644,0.06429202854633331,0.04983477592468262,-0.0207904173342488,-0.1619363698786902,0.013923857480735435,1.59246967269398,-0.007438773174639479,-0.005149919890135024,-0.032997634851605895,0.044784668665929554
1777067790.7370133,-0.06621983647346497,0.6903416514396667,-0.011056363582611084,-0.21589529514312744,0.0904662013053894,1.902913212776184,0.06823204457759857,0.05,-0.0207904173342488,-0.1623178454261076,0.013923857480735435,1.59246967269398,-0.007438773174639479,-0.005149919890135024,-0.032997634851605895,0.044784668665929554
1777067790.7696822,-0.06594967842102051,0.6760596632957458,-0.009277641773223877,-0.21863359212875366,0.08728593587875366,1.916439414024353,0.06347467005252838,0.05,-0.0207904173342488,-0.1619363698786902,0.013923857480735435,1.59246967269398,-0.007438773174639479,-0.005149919890135024,-0.032997634851605895,0.044784668665929554
1777067790.8030336,-0.06709331274032593,0.6808122992515564,-0.009591400623321533,-0.2151358723640442,0.08685415983200073,1.9016324281692505,0.0564708411693573,0.05,-0.0207904173342488,-0.1619363698786902,0.013923857480735435,1.59246967269398,-0.007438773174639479,-0.005149919890135024,-0.032997634851605895,0.044784668665929554
1777067790.8369913,-0.06778073310852051,0.6754282116889954,-0.017844080924987793,-0.21315962076187134,0.08459001779556274,1.9026130437850952,0.061429187655448914,0.05,-0.0207904173342488,-0.1623178454261076,0.013923857480735435,1.59246967269398,-0.007438773174639479,-0.005149919890135024,-0.032997634851605895,0.044784668665929554
1777067790.8699934,-0.0714341402053833,0.6822981238365173,-0.014345288276672363,-0.20653659105300903,0.07879900932312012,1.8996620178222656,0.06064961850643158,0.05,-0.0207904173342488,-0.1619363698786902,0.013923857480735435,1.59246967269398,-0.007438773174639479,-0.005149919890135024,-0.032997634851605895,0.044784668665929554
1777067790.9030135,-0.0684213936328888,0.6678736805915833,-0.014809608459472656,-0.20764392614364624,0.07292556762695312,1.9208259582519531,0.054241880774497986,0.05,-0.0207904173342488,-0.1623178454261076,0.013923857480735435,1.59246967269398,-0.007438773174639479,-0.005149919890135024,-0.032997634851605895,0.044784668665929554
1777067790.9369938,-0.0715196430683136,0.6757392287254333,-0.024197041988372803,-0.20668387413024902,0.07352221012115479,1.8992846012115479,0.04788443446159363,0.05,-0.0207904173342488,-0.1623178454261076,0.013923857480735435,1.59246967269398,-0.007438773174639479,-0.005149919890135024,-0.032997634851605895,0.044784668665929554
1777067790.9697397,-0.0721605122089386,0.6706164479255676,-0.028145313262939453,-0.19970518350601196,0.07531827688217163,1.9176968336105347,0.049466222524642944,0.04994867742061615,-0.0207904173342488,-0.1619363698786902,0.013923857480735435,1.59246967269398,-0.007438773174639479,-0.005149919890135024,-0.032997634851605895,0.044784668665929554
1777067791.0030365,-0.07323053479194641,0.6755953431129456,-0.02604621648788452,-0.2020222544670105,0.0708208680152893,1.9051564931869507,0.04897947609424591,0.049782550334930425,-0.0207904173342488,-0.1623178454261076,0.013923857480735435,1.59246967269398,-0.007438773174639479,-0.005149919890135024,-0.032997634851605895,0.044784668665929554
1777067791.036693,-0.07200542092323303,0.6674819588661194,-0.027243971824645996,-0.197182297706604,0.0631558895111084,1.9244811534881592,0.04460623860359192,0.049714928865432745,-0.0207904173342488,-0.1623178454261076,0.013923857480735435,1.59246967269398,-0.007438773174639479,-0.005149919890135024,-0.032997634851605895,0.044784668665929554
1777067791.0696826,-0.07557374238967896,0.6729604601860046,-0.03361856937408447,-0.19928103685379028,0.06103992462158203,1.9113467931747437,0.04262791574001312,0.049991017580032354,-0.0207904173342488,-0.1623178454261076,0.013923857480735435,1.59246967269398,-0.007438773174639479,-0.005149919890135024,-0.032997634851605895,0.044784668665929554
1777067791.1030777,-0.07494977116584778,0.6697767376899719,-0.03311192989349365,-0.1932971477508545,0.06171536445617676,1.9389011859893799,0.03957255184650421,0.04981351494789124,-0.0207904173342488,-0.1619363698786902,0.013923857480735435,1.59246967269398,-0.007438773174639479,-0.005149919890135024,-0.032997634851605895,0.044784668665929554
1777067791.136914,-0.07660478353500366,0.6692124009132385,-0.03662753105163574,-0.19031649827957153,0.06120705604553223,1.916170358657837,0.04089917242527008,0.04980626702308655,-0.0207904173342488,-0.1619363698786902,0.013923857480735435,1.59246967269398,-0.007438773174639479,-0.005149919890135024,-0.032997634851605895,0.044784668665929554
1777067791.1696796,-0.07549670338630676,0.6544494032859802,-0.03434586524963379,-0.19378823041915894,0.05804014205932617,1.9300236701965332,0.03917321562767029,0.049851191043853764,-0.0207904173342488,-0.1619363698786902,0.013923857480735435,1.59246967269398,-0.007438773174639479,-0.005149919890135024,-0.032997634851605895,0.044784668665929554
1777067791.2030113,-0.07724756002426147,0.6601429581642151,-0.03656363487243652,-0.1907639503479004,0.05132877826690674,1.9090529680252075,0.03439803421497345,0.05,-0.0207904173342488,-0.1623178454261076,0.013923857480735435,1.59246967269398,-0.007438773174639479,-0.005149919890135024,-0.032997634851605895,0.044784668665929554
1777067791.2367332,-0.0766865611076355,0.653475821018219,-0.037974536418914795,-0.19109171628952026,0.06200021505355835,1.9258012771606445,0.03198818862438202,0.04988927841186524,-0.0207904173342488,-0.1623178454261076,0.013923857480735435,1.59246967269398,-0.007438773174639479,-0.005149919890135024,-0.032997634851605895,0.044784668665929554
1777067791.269802,-0.0794958770275116,0.6559696793556213,-0.03879064321517944,-0.19262093305587769,0.054095447063446045,1.9069480895996094,0.039384618401527405,0.04987732768058777,-0.0207904173342488,-0.1619363698786902,0.013923857480735435,1.59246967269398,-0.007438773174639479,-0.005149919890135024,-0.032997634851605895,0.044784668665929554
1777067791.3030121,-0.07714125514030457,0.6463088393211365,-0.03623795509338379,-0.19236719608306885,0.049407124519348145,1.9167472124099731,0.03514520823955536,0.05,-0.0207904173342488,-0.1619363698786902,0.013923857480735435,1.59246967269398,-0.007438773174639479,-0.005149919890135024,-0.032997634851605895,0.044784668665929554
1777067791.3366947,-0.0784807801246643,0.644636332988739,-0.04153257608413696,-0.19813084602355957,0.044189631938934326,1.9028137922286987,0.0349208265542984,0.05,-0.0207904173342488,-0.1619363698786902,0.013923857480735435,1.59246967269398,-0.007438773174639479,-0.005149919890135024,-0.032997634851605895,0.044784668665929554
1777067791.3699484,-0.07817503809928894,0.6458864808082581,-0.037686705589294434,-0.19208049774169922,0.052707552909851074,1.9137463569641113,0.03246976435184479,0.0498676598072052,-0.0207904173342488,-0.1619363698786902,0.013923857480735435,1.59246967269398,-0.007438773174639479,-0.005149919890135024,-0.032997634851605895,0.044784668665929554
1777067791.4030573,-0.07968199253082275,0.6482253670692444,-0.03771817684173584,-0.20033478736877441,0.05064135789871216,1.8943384885787964,0.04126177728176117,0.049985787272453314,-0.0207904173342488,-0.1619363698786902,0.013923857480735435,1.59246967269398,-0.007438773174639479,-0.005149919890135024,-0.032997634851605895,0.044784668665929554
1777067791.4367805,-0.07877779006958008,0.6353153586387634,-0.038252055644989014,-0.19598627090454102,0.04634624719619751,1.9248934984207153,0.032685503363609314,0.04980964064598084,-0.0207904173342488,-0.1623178454261076,0.013923857480735435,1.59246967269398,-0.007438773174639479,-0.005149919890135024,-0.032997634851605895,0.044784668665929554
1777067791.4697409,-0.08191874623298645,0.6414211392402649,-0.04518371820449829,-0.19819515943527222,0.03979611396789551,1.899955153465271,0.03351375460624695,0.04988216757774353,-0.0207904173342488,-0.1623178454261076,0.013923857480735435,1.59246967269398,-0.007438773174639479,-0.005149919890135024,-0.032997634851605895,0.044784668665929554
1777067791.5030077,-0.0827450156211853,0.6309360861778259,-0.03986316919326782,-0.1884658932685852,0.04363793134689331,1.9204384088516235,0.02907930314540863,0.04954686760902405,-0.0207904173342488,-0.1619363698786902,0.013923857480735435,1.59246967269398,-0.007438773174639479,-0.005149919890135024,-0.032997634851605895,0.044784668665929554
1777067791.5369682,-0.0844377875328064,0.6384750008583069,-0.04345792531967163,-0.19585442543029785,0.034740149974823,1.8995330333709717,0.0312521755695343,0.04966215789318085,-0.0207904173342488,-0.1623178454261076,0.013923857480735435,1.59246967269398,-0.007438773174639479,-0.005149919890135024,-0.032997634851605895,0.044784668665929554
1777067791.569732,-0.08294343948364258,0.6183318495750427,-0.0406193733215332,-0.19095230102539062,0.03964430093765259,1.9139342308044434,0.025434166193008423,0.04974966645240784,-0.0207904173342488,-0.1623178454261076,0.013923857480735435,1.59246967269398,-0.007438773174639479,-0.005149919890135024,-0.032997634851605895,0.044784668665929554
1777067791.6030822,-0.0862126350402832,0.6238813996315002,-0.047395944595336914,-0.1949061155319214,0.03102928400039673,1.8963062763214111,0.029151514172554016,0.05,-0.0207904173342488,-0.1623178454261076,0.013923857480735435,1.59246967269398,-0.007438773174639479,-0.005149919890135024,-0.032997634851605895,0.044784668665929554
1777067791.6367583,-0.08475920557975769,0.6172069907188416,-0.051034748554229736,-0.18266278505325317,0.031739234924316406,1.8965204954147339,0.03238849341869354,0.049891415238380435,-0.02040894178683139,-0.1619363698786902,0.013923857480735435,1.59246967269398,-0.007438773174639479,-0.005149919890135024,-0.032997634851605895,0.044784668665929554
1777067791.6696813,-0.08782798051834106,0.6204511523246765,-0.050900936126708984,-0.18442529439926147,0.03346383571624756,1.8836638927459717,0.034025683999061584,0.049999892711639404,-0.0207904173342488,-0.1623178454261076,0.013923857480735435,1.59246967269398,-0.007438773174639479,-0.005149919890135024,-0.032997634851605895,0.044784668665929554
1777067791.7030647,-0.08659574389457703,0.6134447455406189,-0.04797017574310303,-0.175498366355896,0.03146374225616455,1.8930027484893799,0.029816821217536926,0.04986505508422852,-0.0207904173342488,-0.1623178454261076,0.013923857480735435,1.59246967269398,-0.007438773174639479,-0.005149919890135024,-0.032997634851605895,0.044784668665929554
1777067791.7366765,-0.08965298533439636,0.5987903475761414,-0.05184662342071533,-0.18137776851654053,0.034558236598968506,1.8789209127426147,0.028033390641212463,0.04998264312744141,-0.0207904173342488,-0.1623178454261076,0.013923857480735435,1.59246967269398,-0.007438773174639479,-0.005149919890135024,-0.032997634851605895,0.044784668665929554
1777067791.7696939,-0.08820635080337524,0.5940969586372375,-0.051013171672821045,-0.16483736038208008,0.03293347358703613,1.8820782899856567,0.03129054605960846,0.04972455203533173,-0.0207904173342488,-0.1623178454261076,0.013923857480735435,1.59246967269398,-0.007438773174639479,-0.005149919890135024,-0.032997634851605895,0.044784668665929554
1777067791.803105,-0.09221771359443665,0.5924440026283264,-0.05271178483963013,-0.17118442058563232,0.0263216495513916,1.8673367500305176,0.03525900840759277,0.04988558888435364,-0.0207904173342488,-0.1623178454261076,0.013923857480735435,1.59246967269398,-0.007438773174639479,-0.005149919890135024,-0.032997634851605895,0.044784668665929554
1777067791.8366256,-0.09197303652763367,0.5776634812355042,-0.05152535438537598,-0.17041289806365967,0.03183770179748535,1.8777269124984741,0.032863929867744446,0.049683356285095216,-0.0207904173342488,-0.1623178454261076,0.013923857480735435,1.59246967269398,-0.007438773174639479,-0.005149919890135024,-0.032997634851605895,0.044784668665929554
1777067791.869681,-0.09345364570617676,0.5777925848960876,-0.05405920743942261,-0.16930383443832397,0.029137253761291504,1.842078685760498,0.029951423406600952,0.04975019991397858,-0.0207904173342488,-0.1623178454261076,0.013923857480735435,1.59246967269398,-0.007438773174639479,-0.005149919890135024,-0.032997634851605895,0.044784668665929554
1777067791.9030142,-0.0927620530128479,0.5700401663780212,-0.05494070053100586,-0.15724623203277588,0.030414164066314697,1.8516137599945068,0.03221218287944794,0.04942225217819214,-0.0207904173342488,-0.1619363698786902,0.013923857480735435,1.59246967269398,-0.007438773174639479,-0.005149919890135024,-0.032997634851605895,0.044784668665929554
1777067791.9366448,-0.0943852961063385,0.5678566098213196,-0.05685722827911377,-0.1642478108406067,0.02559077739715576,1.840604305267334,0.033181801438331604,0.04954030811786652,-0.0207904173342488,-0.1623178454261076,0.013923857480735435,1.59246967269398,-0.007438773174639479,-0.005149919890135024,-0.032997634851605895,0.044784668665929554
1777067791.969683,-0.09417262673377991,0.5543959736824036,-0.054597556591033936,-0.16289550065994263,0.028943538665771484,1.8496925830841064,0.030522093176841736,0.04983794391155243,-0.0207904173342488,-0.1619363698786902,0.013923857480735435,1.59246967269398,-0.007438773174639479,-0.005149919890135024,-0.032997634851605895,0.044784668665929554
1777067792.0030344,-0.09783729910850525,0.5488906502723694,-0.05609959363937378,-0.16503393650054932,0.02520996332168579,1.8338451385498047,0.03188540041446686,0.05,-0.0207904173342488,-0.1623178454261076,0.013923857480735435,1.59246967269398,-0.007438773174639479,-0.005149919890135024,-0.032997634851605895,0.044784668665929554
1777067792.0366926,-0.09586182236671448,0.5484190583229065,-0.052015066146850586,-0.159903883934021,0.02720320224761963,1.8490486145019531,0.033828526735305786,0.04999250769615174,-0.0207904173342488,-0.1623178454261076,0.013923857480735435,1.59246967269398,-0.007438773174639479,-0.005149919890135024,-0.032997634851605895,0.044784668665929554
1777067792.0697145,-0.09885215759277344,0.5573776364326477,-0.0555415153503418,-0.16813379526138306,0.03032374382019043,1.8362187147140503,0.035636529326438904,0.049890619516372685,-0.0207904173342488,-0.1619363698786902,0.013923857480735435,1.59246967269398,-0.00705729762722207,-0.005149919890135024,-0.032997634851605895,0.044784668665929554
1777067792.103035,-0.09797623753547668,0.5487510561943054,-0.05069434642791748,-0.17103737592697144,0.02887052297592163,1.8540148735046387,0.0344700962305069,0.04978190362453461,-0.0207904173342488,-0.1623178454261076,0.013923857480735435,1.59246967269398,-0.007438773174639479,-0.005149919890135024,-0.032997634851605895,0.044784668665929554
1777067792.1367543,-0.09978047013282776,0.5473658442497253,-0.050985753536224365,-0.17447489500045776,0.01984304189682007,1.8410112857818604,0.032461076974868774,0.0499401330947876,-0.0207904173342488,-0.1623178454261076,0.013923857480735435,1.59246967269398,-0.007438773174639479,-0.005149919890135024,-0.032997634851605895,0.044784668665929554
1777067792.169687,-0.10187602043151855,0.5490996241569519,-0.051084160804748535,-0.16843700408935547,0.0284002423286438,1.8566806316375732,0.029157593846321106,0.04969684183597565,-0.02040894178683139,-0.1619363698786902,0.013923857480735435,1.59246967269398,-0.007438773174639479,-0.005149919890135024,-0.032997634851605895,0.044784668665929554
1777067792.2030506,-0.10364055633544922,0.5534535050392151,-0.05118495225906372,-0.1728907823562622,0.02211582660675049,1.8512359857559204,0.03671753406524658,0.04995511472225189,-0.0207904173342488,-0.1623178454261076,0.013923857480735435,1.59246967269398,-0.007438773174639479,-0.005149919890135024,-0.032997634851605895,0.044784668665929554
1777067792.2366686,-0.10153281688690186,0.543025553226471,-0.049050986766815186,-0.17312729358673096,0.022401273250579834,1.8777378797531128,0.029226943850517273,0.04986115396022797,-0.0207904173342488,-0.1619363698786902,0.013923857480735435,1.59246967269398,-0.007438773174639479,-0.005149919890135024,-0.032997634851605895,0.044784668665929554
1777067792.2696853,-0.10295546054840088,0.5441259741783142,-0.054689645767211914,-0.17345285415649414,0.020237445831298828,1.8567124605178833,0.030595943331718445,0.049891340732574466,-0.0207904173342488,-0.1623178454261076,0.013923857480735435,1.59246967269398,-0.007438773174639479,-0.005149919890135024,-0.032997634851605895,0.044784668665929554
1777067792.3030634,-0.10337141156196594,0.528021514415741,-0.055346131324768066,-0.1683700680732727,0.027354836463928223,1.8673676252365112,0.027367159724235535,0.04959596395492554,-0.0207904173342488,-0.1619363698786902,0.013923857480735435,1.59246967269398,-0.007438773174639479,-0.005149919890135024,-0.032997634851605895,0.044784668665929554
1777067792.3371255,-0.10403871536254883,0.5268754363059998,-0.05746740102767944,-0.1680862307548523,0.021259307861328125,1.8599205017089844,0.02866603434085846,0.049891418218612676,-0.0207904173342488,-0.1619363698786902,0.013923857480735435,1.59246967269398,-0.007438773174639479,-0.005149919890135024,-0.032997634851605895,0.044784668665929554
1777067792.3700066,-0.10200855135917664,0.51763516664505,-0.05392575263977051,-0.16852450370788574,0.022198140621185303,1.8844183683395386,0.024944379925727844,0.04990275502204895,-0.0207904173342488,-0.1619363698786902,0.013923857480735435,1.59246967269398,-0.007438773174639479,-0.005149919890135024,-0.032997634851605895,0.044784668665929554
1777067792.403337,-0.10414427518844604,0.5249283909797668,-0.05988258123397827,-0.16446983814239502,0.021976351737976074,1.8718100786209106,0.02612471580505371,0.05,-0.0207904173342488,-0.1623178454261076,0.013923857480735435,1.59246967269398,-0.007438773174639479,-0.005149919890135024,-0.032997634851605895,0.044784668665929554
1777067792.4370575,-0.10431504249572754,0.5095270276069641,-0.06036484241485596,-0.16430360078811646,0.02482438087463379,1.8915835618972778,0.024937152862548828,0.049848136305809025,-0.0207904173342488,-0.1623178454261076,0.013923857480735435,1.59246967269398,-0.007438773174639479,-0.005149919890135024,-0.032997634851605895,0.044784668665929554
1777067792.4700112,-0.10514861345291138,0.5134599804878235,-0.0654497742652893,-0.1636630892753601,0.012375593185424805,1.8695229291915894,0.024587571620941162,0.05,-0.0207904173342488,-0.1623178454261076,0.013923857480735435,1.59246967269398,-0.007438773174639479,-0.005149919890135024,-0.032997634851605895,0.044784668665929554
1777067792.5033207,-0.10677152872085571,0.49757784605026245,-0.06012535095214844,-0.15972882509231567,0.02004408836364746,1.903023362159729,0.01599527895450592,0.04985179901123047,-0.0207904173342488,-0.1619363698786902,0.013923857480735435,1.59246967269398,-0.007438773174639479,-0.005149919890135024,-0.032997634851605895,0.044784668665929554
1777067792.5371087,-0.10874992609024048,0.492309033870697,-0.06710106134414673,-0.16437679529190063,0.0108528733253479,1.8801159858703613,0.017910227179527283,0.05,-0.0207904173342488,-0.1623178454261076,0.013923857480735435,1.59246967269398,-0.007438773174639479,-0.005149919890135024,-0.032997634851605895,0.044784668665929554
1777067792.5700083,-0.10932508111000061,0.4809296727180481,-0.06754183769226074,-0.1601482629776001,0.0173683762550354,1.9110313653945923,0.02211238443851471,0.049894610047340394,-0.0207904173342488,-0.1619363698786902,0.013923857480735435,1.59246967269398,-0.007438773174639479,-0.005149919890135024,-0.032997634851605895,0.044784668665929554
1777067792.6033494,-0.11172786355018616,0.4754565358161926,-0.07875341176986694,-0.15520721673965454,0.01377779245376587,1.8799018859863281,0.022238492965698242,0.05,-0.0207904173342488,-0.1623178454261076,0.013923857480735435,1.59246967269398,-0.007438773174639479,-0.005149919890135024,-0.032997634851605895,0.044784668665929554
1777067792.6370935,-0.11059322953224182,0.439272940158844,-0.06350469589233398,-0.1539750099182129,0.019812166690826416,1.9064515829086304,0.012407183647155762,0.05,-0.0207904173342488,-0.1619363698786902,0.013923857480735435,1.59246967269398,-0.007438773174639479,-0.005149919890135024,-0.032997634851605895,0.044784668665929554
1777067792.6699958,-0.11400088667869568,0.4401833415031433,-0.08330929279327393,-0.15651726722717285,0.01486825942993164,1.8848235607147217,0.012460321187973022,0.05,-0.0207904173342488,-0.1619363698786902,0.013923857480735435,1.59246967269398,-0.007438773174639479,-0.005149919890135024,-0.032997634851605895,0.044784668665929554
1777067792.7033305,-0.11254289746284485,0.4320841431617737,-0.07340854406356812,-0.14551299810409546,0.006018579006195068,1.9089781045913696,0.013799592852592468,0.05,-0.0207904173342488,-0.1619363698786902,0.013923857480735435,1.59246967269398,-0.007438773174639479,-0.005149919890135024,-0.032997634851605895,0.044784668665929554
1777067792.736954,-0.11784504354000092,0.4246280789375305,-0.08962726593017578,-0.14831995964050293,0.005727112293243408,1.8806822299957275,0.01860816776752472,0.049879008531570436,-0.0207904173342488,-0.1623178454261076,0.013923857480735435,1.59246967269398,-0.007438773174639479,-0.005149919890135024,-0.032997634851605895,0.044784668665929554
1777067792.7700117,-0.11981531977653503,0.39239805936813354,-0.10080862045288086,-0.13160187005996704,0.006973206996917725,1.8844172954559326,0.03298063576221466,0.05,-0.0207904173342488,-0.1623178454261076,0.013923857480735435,1.59246967269398,-0.007438773174639479,-0.005149919890135024,-0.032997634851605895,0.044784668665929554
1777067792.8035197,-0.12100335955619812,0.38845914602279663,-0.09124255180358887,-0.1325610876083374,0.004005134105682373,1.872711420059204,0.041370853781700134,0.049663114547729495,-0.0207904173342488,-0.1619363698786902,0.013923857480735435,1.59246967269398,-0.007438773174639479,-0.005149919890135024,-0.032997634851605895,0.044784668665929554
1777067792.8369358,-0.125998854637146,0.32934337854385376,-0.08736610412597656,-0.15793651342391968,0.021647870540618896,1.862118124961853,0.03307721018791199,0.048539969325065616,-0.0207904173342488,-0.1619363698786902,0.013923857480735435,1.59246967269398,-0.007438773174639479,-0.005149919890135024,-0.032997634851605895,0.044784668665929554
1777067792.870021,-0.12872451543807983,0.31559449434280396,-0.10207855701446533,-0.15344887971878052,0.0009329915046691895,1.8273837566375732,0.04039683938026428,0.04788768887519837,-0.0207904173342488,-0.1623178454261076,0.013923857480735435,1.59246967269398,-0.007438773174639479,-0.005149919890135024,-0.032997634851605895,0.044784668665929554
1777067795.5004776,0.007820546627044678,0.7060512900352478,0.014794647693634033,-0.3250735402107239,0.15062081813812256,2.016066551208496,0.054956674575805664,0.04972132444381714,-0.0207904173342488,-0.1623178454261076,0.013923857480735435,1.59246967269398,-0.007438773174639479,-0.005149919890135024,-0.032997634851605895,0.044784668665929554
1777067795.5025556,0.007583498954772949,0.7060512900352478,0.041188716888427734,-0.30661118030548096,0.1524261236190796,1.9634771347045898,0.020887896418571472,0.04947829246520996,-0.0207904173342488,-0.1623178454261076,0.013923857480735435,1.59246967269398,-0.007438773174639479,-0.005149919890135024,-0.032997634851605895,0.044784668665929554
1777067795.5041792,0.012609392404556274,0.7060512900352478,-0.00598752498626709,-0.279704749584198,0.16288095712661743,1.9752062559127808,0.03219534456729889,0.04952969551086426,-0.0207904173342488,-0.1623178454261076,0.013923857480735435,1.59246967269398,-0.007438773174639479,-0.005149919890135024,-0.032997634851605895,0.044784668665929554
1777067795.53645,0.009576022624969482,0.7060512900352478,0.003216683864593506,-0.2988426983356476,0.1668245792388916,1.9589072465896606,0.05496351420879364,0.04897202551364899,-0.02040894178683139,-0.1619363698786902,0.013923857480735435,1.59246967269398,-0.007438773174639479,-0.005149919890135024,-0.032997634851605895,0.044784668665929554
1777067795.5697615,0.006817072629928589,0.7060512900352478,0.00986868143081665,-0.2876393496990204,0.1802937388420105,1.960433840751648,0.05510759353637695,0.0497577965259552,-0.0207904173342488,-0.1619363698786902,0.013923857480735435,1.59246967269398,-0.007438773174639479,-0.005149919890135024,-0.032997634851605895,0.044784668665929554
1777067795.6029515,0.005977660417556763,0.7060512900352478,0.005324244499206543,-0.27222883701324463,0.17453408241271973,1.9497452974319458,0.0591900497674942,0.05,-0.0207904173342488,-0.1623178454261076,0.013923857480735435,1.59246967269398,-0.007438773174639479,-0.005149919890135024,-0.032997634851605895,0.044784668665929554
1777067795.6368282,0.003321319818496704,0.7060512900352478,-0.004778087139129639,-0.2801050841808319,0.17100286483764648,1.9518001079559326,0.06191341578960419,0.05,-0.0207904173342488,-0.1623178454261076,0.013923857480735435,1.59246967269398,-0.007438773174639479,-0.005149919890135024,-0.032997634851605895,0.044784668665929554
1777067795.6697643,-0.0010510385036468506,0.7060512900352478,-5.543231964111328e-06,-0.26090696454048157,0.17208749055862427,1.9394519329071045,0.06346313655376434,0.05,-0.0207904173342488,-0.1623178454261076,0.013923857480735435,1.59246967269398,-0.007438773174639479,-0.005149919890135024,-0.032997634851605895,0.044784668665929554
1777067795.702982,-0.004112273454666138,0.7060512900352478,-0.004046320915222168,-0.26010867953300476,0.15961259603500366,1.9420280456542969,0.06398217380046844,0.05,-0.0207904173342488,-0.1623178454261076,0.013923857480735435,1.59246967269398,-0.007438773174639479,-0.005149919890135024,-0.032997634851605895,0.044784668665929554
1777067795.7368193,-0.008032023906707764,0.7060512900352478,-0.0016685128211975098,-0.25866058468818665,0.15846574306488037,1.9399495124816895,0.0685470849275589,0.05,-0.0207904173342488,-0.1619363698786902,0.013923857480735435,1.59246967269398,-0.007438773174639479,-0.005149919890135024,-0.032997634851605895,0.044784668665929554
1777067795.7696898,-0.010286033153533936,0.7060512900352478,-0.001588582992553711,-0.24733594059944153,0.14251285791397095,1.9287607669830322,0.0672634094953537,0.04986901581287384,-0.0207904173342488,-0.1619363698786902,0.013923857480735435,1.59246967269398,-0.007438773174639479,-0.005149919890135024,-0.032997634851605895,0.044784668665929554
1777067795.8036673,-0.015931159257888794,0.7060512900352478,-0.0068552494049072266,-0.23791223764419556,0.14721888303756714,1.916656732559204,0.07513527572154999,0.05,-0.0207904173342488,-0.1619363698786902,0.013923857480735435,1.59246967269398,-0.007438773174639479,-0.005149919890135024,-0.032997634851605895,0.044784668665929554
1777067795.8368282,-0.015133410692214966,0.7060512900352478,-0.0004584789276123047,-0.23352044820785522,0.13644194602966309,1.918928861618042,0.07559357583522797,0.04984661042690278,-0.0207904173342488,-0.1619363698786902,0.013923857480735435,1.59246967269398,-0.007438773174639479,-0.005149919890135024,-0.032997634851605895,0.044784668665929554
1777067795.869749,-0.02063348889350891,0.7060512900352478,-0.002041459083557129,-0.24252507090568542,0.12777841091156006,1.903465986251831,0.06985549628734589,0.04985474944114685,-0.0207904173342488,-0.1623178454261076,0.013923857480735435,1.59246967269398,-0.007438773174639479,-0.005149919890135024,-0.032997634851605895,0.044784668665929554
1777067795.9029665,-0.02187567949295044,0.7060512900352478,-0.005325257778167725,-0.22683662176132202,0.12957215309143066,1.913156270980835,0.07824571430683136,0.04963725805282593,-0.0207904173342488,-0.1619363698786902,0.013923857480735435,1.59246967269398,-0.007438773174639479,-0.005149919890135024,-0.032997634851605895,0.044784668665929554
1777067795.936829,-0.024963080883026123,0.7060512900352478,-0.0028992891311645508,-0.22829246520996094,0.11275792121887207,1.907188057899475,0.0842866450548172,0.05,-0.0207904173342488,-0.1619363698786902,0.013923857480735435,1.59246967269398,-0.007438773174639479,-0.005149919890135024,-0.032997634851605895,0.044784668665929554
1777067795.969895,-0.026970893144607544,0.7060512900352478,0.0029702186584472656,-0.22270768880844116,0.12120091915130615,1.9119912385940552,0.067613884806633,0.04966931939125061,-0.0207904173342488,-0.1619363698786902,0.013923857480735435,1.59246967269398,-0.007438773174639479,-0.005149919890135024,-0.032997634851605895,0.044784668665929554
1777067796.0030608,-0.029576778411865234,0.7060512900352478,0.006215095520019531,-0.23589015007019043,0.11825406551361084,1.90367591381073,0.07604695856571198,0.05,-0.0207904173342488,-0.1623178454261076,0.013923857480735435,1.59246967269398,-0.007438773174639479,-0.005149919890135024,-0.032997634851605895,0.044784668665929554
1777067796.0368521,-0.027686089277267456,0.7060512900352478,0.008921563625335693,-0.22708725929260254,0.11584389209747314,1.901155948638916,0.07665176689624786,0.04970950782299042,-0.0207904173342488,-0.1623178454261076,0.013923857480735435,1.59246967269398,-0.007438773174639479,-0.005149919890135024,-0.032997634851605895,0.044784668665929554
1777067796.0698082,-0.03437182307243347,0.7060512900352478,0.004622995853424072,-0.23513266444206238,0.11538493633270264,1.8913607597351074,0.08068789541721344,0.05,-0.0207904173342488,-0.1623178454261076,0.013923857480735435,1.59246967269398,-0.007438773174639479,-0.005149919890135024,-0.032997634851605895,0.044784668665929554
1777067796.1031644,-0.03301212191581726,0.7060512900352478,0.016142964363098145,-0.22851985692977905,0.11427026987075806,1.90293550491333,0.07028551399707794,0.05,-0.0207904173342488,-0.1619363698786902,0.013923857480735435,1.59246967269398,-0.007438773174639479,-0.005149919890135024,-0.032997634851605895,0.044784668665929554
1777067796.136852,-0.03769195079803467,0.7060512900352478,0.014062285423278809,-0.23978817462921143,0.11163395643234253,1.9014476537704468,0.06992579996585846,0.05,-0.0207904173342488,-0.1623178454261076,0.013923857480735435,1.59246967269398,-0.007438773174639479,-0.005149919890135024,-0.032997634851605895,0.044784668665929554
1777067796.1698823,-0.03683510422706604,0.7060512900352478,0.01165860891342163,-0.23046773672103882,0.1073988676071167,1.904801368713379,0.07190655171871185,0.049541819095611575,-0.0207904173342488,-0.1623178454261076,0.013923857480735435,1.59246967269398,-0.007438773174639479,-0.005149919890135024,-0.032997634851605895,0.044784668665929554
1777067796.2029593,-0.0412631630897522,0.7060512900352478,0.011218428611755371,-0.23565849661827087,0.10258561372756958,1.90546715259552,0.0730629712343216,0.04974585771560669,-0.0207904173342488,-0.1623178454261076,0.013923857480735435,1.59246967269398,-0.007438773174639479,-0.005149919890135024,-0.032997634851605895,0.044784668665929554
1777067796.2368193,-0.041099727153778076,0.7060512900352478,0.0110664963722229,-0.23393014073371887,0.10061651468276978,1.91658353805542,0.06824629008769989,0.04967093467712402,-0.0207904173342488,-0.1619363698786902,0.013923857480735435,1.59246967269398,-0.007438773174639479,-0.005149919890135024,-0.032997634851605895,0.044784668665929554
1777067796.2697904,-0.045194536447525024,0.7060512900352478,0.011244714260101318,-0.23639655113220215,0.10041123628616333,1.908030390739441,0.06750626862049103,0.05,-0.0207904173342488,-0.1623178454261076,0.013923857480735435,1.59246967269398,-0.007438773174639479,-0.005149919890135024,-0.033379110399023304,0.044784668665929554
1777067796.3031044,-0.04509177803993225,0.7060512900352478,0.011341631412506104,-0.22905105352401733,0.10279691219329834,1.9167808294296265,0.06307502090930939,0.04935232698917389,-0.0207904173342488,-0.1619363698786902,0.013923857480735435,1.59246967269398,-0.007438773174639479,-0.005149919890135024,-0.032997634851605895,0.044784668665929554
1777067796.336729,-0.04837268590927124,0.7060512900352478,0.012393951416015625,-0.2360057532787323,0.0973404049873352,1.9064170122146606,0.06773485243320465,0.049614304304122926,-0.0207904173342488,-0.1623178454261076,0.013923857480735435,1.59246967269398,-0.007438773174639479,-0.005149919890135024,-0.032997634851605895,0.044784668665929554
1777067796.3697467,-0.04885074496269226,0.7060512900352478,0.007123351097106934,-0.2326476275920868,0.09098345041275024,1.9203863143920898,0.0659257024526596,0.049516606330871585,-0.0207904173342488,-0.1619363698786902,0.013923857480735435,1.59246967269398,-0.007438773174639479,-0.005149919890135024,-0.032997634851605895,0.044784668665929554
1777067796.4029849,-0.05253344774246216,0.7060512900352478,0.013770699501037598,-0.23562243580818176,0.09128648042678833,1.9103271961212158,0.06356753408908844,0.05,-0.0207904173342488,-0.1623178454261076,0.013923857480735435,1.59246967269398,-0.007438773174639479,-0.005149919890135024,-0.032997634851605895,0.044784668665929554
1777067796.4368792,-0.05194282531738281,0.7060512900352478,0.015291392803192139,-0.22832906246185303,0.09090971946716309,1.9193477630615234,0.057760581374168396,0.04952347278594971,-0.0207904173342488,-0.1619363698786902,0.013923857480735435,1.59246967269398,-0.007438773174639479,-0.005149919890135024,-0.032997634851605895,0.044784668665929554
1777067796.4698277,-0.05597791075706482,0.7060512900352478,0.011097967624664307,-0.22732913494110107,0.08483350276947021,1.9210540056228638,0.06247963011264801,0.04982231557369232,-0.0207904173342488,-0.1623178454261076,0.013923857480735435,1.59246967269398,-0.007438773174639479,-0.005149919890135024,-0.032997634851605895,0.044784668665929554
1777067796.503074,-0.05697911977767944,0.7060512900352478,0.011397778987884521,-0.22557294368743896,0.08516699075698853,1.9427262544631958,0.053327590227127075,0.04942155778408051,-0.0207904173342488,-0.1623178454261076,0.013923857480735435,1.59246967269398,-0.007438773174639479,-0.005149919890135024,-0.032997634851605895,0.044784668665929554
1777067796.5371473,-0.058357954025268555,0.7016554474830627,0.011678099632263184,-0.22544008493423462,0.08614039421081543,1.923080325126648,0.052127182483673096,0.049822235107421876,-0.0207904173342488,-0.1623178454261076,0.013923857480735435,1.59246967269398,-0.007438773174639479,-0.005149919890135024,-0.032997634851605895,0.044784668665929554
1777067796.5696912,-0.058972567319869995,0.6981404423713684,0.008394598960876465,-0.22091907262802124,0.08818095922470093,1.9326106309890747,0.04946631193161011,0.049436867237091064,-0.0207904173342488,-0.1619363698786902,0.013923857480735435,1.59246967269398,-0.007438773174639479,-0.005149919890135024,-0.032997634851605895,0.044784668665929554
1777067796.6030195,-0.06166771054267883,0.6990249752998352,0.0052939653396606445,-0.21779471635818481,0.07900470495223999,1.9145920276641846,0.060652002692222595,0.04983611106872559,-0.0207904173342488,-0.1619363698786902,0.013923857480735435,1.59246967269398,-0.007438773174639479,-0.005149919890135024,-0.032997634851605895,0.044784668665929554
1777067796.6367037,-0.06271234154701233,0.6967615485191345,0.006940066814422607,-0.21650028228759766,0.07641106843948364,1.93507981300354,0.04367440938949585,0.04968867599964142,-0.0207904173342488,-0.1619363698786902,0.013923857480735435,1.59246967269398,-0.007438773174639479,-0.005149919890135024,-0.032997634851605895,0.044784668665929554
1777067796.669834,-0.06268313527107239,0.6919171214103699,0.002513706684112549,-0.21796143054962158,0.08142518997192383,1.9168823957443237,0.04532136023044586,0.049925109744071966,-0.0207904173342488,-0.1623178454261076,0.013923857480735435,1.59246967269398,-0.007438773174639479,-0.005149919890135024,-0.032997634851605895,0.044784668665929554
1777067796.702976,-0.0623476505279541,0.6881211400032043,-0.006363213062286377,-0.20636743307113647,0.07770496606826782,1.9324755668640137,0.041444599628448486,0.049662727117538455,-0.0207904173342488,-0.1619363698786902,0.013923857480735435,1.59246967269398,-0.007438773174639479,-0.005149919890135024,-0.032997634851605895,0.044784668665929554
1777067796.736866,-0.06516686081886292,0.6821256279945374,-0.011141598224639893,-0.20930695533752441,0.07171183824539185,1.9123153686523438,0.05149979889392853,0.04995445013046265,-0.0207904173342488,-0.1623178454261076,0.013923857480735435,1.59246967269398,-0.007438773174639479,-0.005149919890135024,-0.032997634851605895,0.044784668665929554
1777067796.7697296,-0.06582936644554138,0.6703426241874695,-0.010781049728393555,-0.20936930179595947,0.06905984878540039,1.9162310361862183,0.04107643663883209,0.04992722868919373,-0.0207904173342488,-0.1623178454261076,0.013923857480735435,1.59246967269398,-0.007438773174639479,-0.005149919890135024,-0.032997634851605895,0.044784668665929554
1777067796.803137,-0.06720536947250366,0.6677249073982239,-0.015444397926330566,-0.20870119333267212,0.0701332688331604,1.9013123512268066,0.045066624879837036,0.04984182119369507,-0.0207904173342488,-0.1623178454261076,0.013923857480735435,1.59246967269398,-0.007438773174639479,-0.005149919890135024,-0.032997634851605895,0.044784668665929554
1777067796.8368015,-0.06640714406967163,0.6652472615242004,-0.013369321823120117,-0.20006322860717773,0.07398045063018799,1.9125109910964966,0.042881160974502563,0.04966462850570679,-0.0207904173342488,-0.1623178454261076,0.013923857480735435,1.59246967269398,-0.007438773174639479,-0.005149919890135024,-0.032997634851605895,0.044784668665929554
1777067796.8697462,-0.06797367334365845,0.6711788773536682,-0.012936949729919434,-0.20206576585769653,0.06989610195159912,1.8960617780685425,0.05040355026721954,0.04974164962768555,-0.0207904173342488,-0.1623178454261076,0.013923857480735435,1.59246967269398,-0.007438773174639479,-0.005149919890135024,-0.032997634851605895,0.044784668665929554
1777067796.9029696,-0.06872445344924927,0.6576084494590759,-0.016013264656066895,-0.20478272438049316,0.07292026281356812,1.9070295095443726,0.04619632661342621,0.04981552362442017,-0.02040894178683139,-0.1623178454261076,0.013923857480735435,1.59246967269398,-0.007438773174639479,-0.005149919890135024,-0.032997634851605895,0.044784668665929554
1777067796.9367843,-0.06842541694641113,0.6593108773231506,-0.010648488998413086,-0.19837266206741333,0.0632827877998352,1.8952560424804688,0.043718576431274414,0.05,-0.0207904173342488,-0.1619363698786902,0.013923857480735435,1.59246967269398,-0.007438773174639479,-0.005149919890135024,-0.032997634851605895,0.044784668665929554
1777067796.9697492,-0.06907385587692261,0.6599190831184387,-0.014321565628051758,-0.19928503036499023,0.0678337812423706,1.9021432399749756,0.04349955916404724,0.049933993816375734,-0.0207904173342488,-0.1623178454261076,0.013923857480735435,1.59246967269398,-0.007438773174639479,-0.005149919890135024,-0.032997634851605895,0.044784668665929554
1777067797.0029702,-0.07287752628326416,0.6617855429649353,-0.010863721370697021,-0.19942927360534668,0.06284058094024658,1.8988258838653564,0.049439817667007446,0.05,-0.0207904173342488,-0.1619363698786902,0.013923857480735435,1.59246967269398,-0.007438773174639479,-0.005149919890135024,-0.032997634851605895,0.044784668665929554
1777067797.0367641,-0.07068559527397156,0.6492413878440857,-0.010477542877197266,-0.2011452317237854,0.06305092573165894,1.9137803316116333,0.04128262400627136,0.05,-0.0207904173342488,-0.1623178454261076,0.013923857480735435,1.59246967269398,-0.007438773174639479,-0.005149919890135024,-0.032997634851605895,0.044784668665929554
1777067797.0698783,-0.07422742247581482,0.6568074822425842,-0.016577959060668945,-0.20736587047576904,0.06326895952224731,1.8937116861343384,0.04066605865955353,0.05,-0.0207904173342488,-0.1623178454261076,0.013923857480735435,1.59246967269398,-0.007438773174639479,-0.005149919890135024,-0.032997634851605895,0.044784668665929554
1777067797.10298,-0.0717780590057373,0.6415503621101379,-0.016686081886291504,-0.20094263553619385,0.06428635120391846,1.9068684577941895,0.03643257915973663,0.05,-0.0207904173342488,-0.1623178454261076,0.013923857480735435,1.59246967269398,-0.007438773174639479,-0.005149919890135024,-0.032997634851605895,0.044784668665929554
1777067797.136803,-0.07330039143562317,0.6464648842811584,-0.02139967679977417,-0.20269328355789185,0.05679154396057129,1.8870927095413208,0.03964190185070038,0.05,-0.0207904173342488,-0.1619363698786902,0.013923857480735435,1.59246967269398,-0.007438773174639479,-0.005149919890135024,-0.032997634851605895,0.044784668665929554
1777067797.1696894,-0.07265660166740417,0.6392424702644348,-0.026334702968597412,-0.1956954002380371,0.05479401350021362,1.9116994142532349,0.032178640365600586,0.05,-0.0207904173342488,-0.1619363698786902,0.013923857480735435,1.59246967269398,-0.007438773174639479,-0.005149919890135024,-0.032997634851605895,0.044784668665929554
1777067797.2030559,-0.07462093234062195,0.6422991156578064,-0.03396201133728027,-0.19987964630126953,0.047123074531555176,1.896659255027771,0.0299064964056015,0.05,-0.0207904173342488,-0.1623178454261076,0.013923857480735435,1.59246967269398,-0.007438773174639479,-0.005149919890135024,-0.032997634851605895,0.044784668665929554
1777067797.2369528,-0.07516533136367798,0.6322060227394104,-0.037295401096343994,-0.1847345232963562,0.050524771213531494,1.9073867797851562,0.029271885752677917,0.04995577931404114,-0.0207904173342488,-0.1623178454261076,0.013923857480735435,1.59246967269398,-0.007438773174639479,-0.005149919890135024,-0.032997634851605895,0.044784668665929554
1777067797.2697892,-0.07771438360214233,0.636035144329071,-0.03694021701812744,-0.18995898962020874,0.04543191194534302,1.8872421979904175,0.029961898922920227,0.05,-0.0207904173342488,-0.1619363698786902,0.013923857480735435,1.59246967269398,-0.007438773174639479,-0.005149919890135024,-0.032997634851605895,0.044784668665929554
1777067797.3029954,-0.0758795440196991,0.6238613724708557,-0.03708463907241821,-0.1899539828300476,0.04745936393737793,1.9011927843093872,0.027811571955680847,0.04989712536334992,-0.0207904173342488,-0.1623178454261076,0.013923857480735435,1.59246967269398,-0.007438773174639479,-0.005149919890135024,-0.032997634851605895,0.044784668665929554
1777067797.3368602,-0.07780230045318604,0.619283139705658,-0.03295177221298218,-0.19269657135009766,0.04587060213088989,1.8827182054519653,0.031171679496765137,0.05,-0.0207904173342488,-0.1623178454261076,0.013923857480735435,1.59246967269398,-0.007438773174639479,-0.005149919890135024,-0.032997634851605895,0.044784668665929554
1777067797.3698974,-0.0773165225982666,0.6175269484519958,-0.028681278228759766,-0.19016581773757935,0.05057704448699951,1.8953595161437988,0.03150281310081482,0.04978986382484436,-0.0207904173342488,-0.1623178454261076,0.013923857480735435,1.59246967269398,-0.007438773174639479,-0.005149919890135024,-0.032997634851605895,0.044784668665929554
1777067797.403118,-0.07891178131103516,0.6264069676399231,-0.030277729034423828,-0.19281744956970215,0.053955256938934326,1.8839465379714966,0.0380469411611557,0.049737760424613954,-0.0207904173342488,-0.1623178454261076,0.013923857480735435,1.59246967269398,-0.007438773174639479,-0.005149919890135024,-0.032997634851605895,0.044784668665929554
1777067797.436835,-0.07830098271369934,0.6247784495353699,-0.020938396453857422,-0.18904143571853638,0.0524829626083374,1.9064538478851318,0.030866846442222595,0.04954028129577637,-0.0207904173342488,-0.1623178454261076,0.013923857480735435,1.59246967269398,-0.007438773174639479,-0.005149919890135024,-0.032997634851605895,0.044784668665929554
1777067797.4697862,-0.08140155673027039,0.6254577040672302,-0.023459970951080322,-0.18980956077575684,0.04844963550567627,1.8863948583602905,0.03497797250747681,0.049551439285278324,-0.0207904173342488,-0.1623178454261076,0.013923857480735435,1.59246967269398,-0.007438773174639479,-0.005149919890135024,-0.032997634851605895,0.044784668665929554
1777067797.5030782,-0.08350670337677002,0.6289146542549133,-0.020679712295532227,-0.18217617273330688,0.04780369997024536,1.9178210496902466,0.031149759888648987,0.04941503405570984,-0.0207904173342488,-0.1619363698786902,0.013923857480735435,1.59246967269398,-0.007438773174639479,-0.005149919890135024,-0.032997634851605895,0.044784668665929554
1777067797.536832,-0.08593928813934326,0.623317539691925,-0.020682036876678467,-0.18443608283996582,0.04095405340194702,1.8968194723129272,0.03478896617889404,0.04955205917358399,-0.0207904173342488,-0.1619363698786902,0.013923857480735435,1.59246967269398,-0.007438773174639479,-0.005149919890135024,-0.032997634851605895,0.044784668665929554
1777067797.5697584,-0.08830699324607849,0.6089072823524475,-0.022884905338287354,-0.19230061769485474,0.04412651062011719,1.9115252494812012,0.025836870074272156,0.049669915437698366,-0.0207904173342488,-0.1619363698786902,0.013923857480735435,1.59246967269398,-0.007438773174639479,-0.005149919890135024,-0.032997634851605895,0.044784668665929554
1777067797.6030476,-0.08772590756416321,0.616081178188324,-0.016517221927642822,-0.18802475929260254,0.04185950756072998,1.891158103942871,0.03422413766384125,0.049859994649887086,-0.0207904173342488,-0.1623178454261076,0.013923857480735435,1.59246967269398,-0.007438773174639479,-0.005149919890135024,-0.032997634851605895,0.044784668665929554
1777067797.6372163,-0.0870085060596466,0.6056657433509827,-0.021007299423217773,-0.18774926662445068,0.04331052303314209,1.9082067012786865,0.030561193823814392,0.04962897598743439,-0.02040894178683139,-0.1619363698786902,0.013923857480735435,1.59246967269398,-0.007438773174639479,-0.005149919890135024,-0.032997634851605895,0.044784668665929554
1777067797.6697495,-0.08890166878700256,0.6188598275184631,-0.018013715744018555,-0.1912049651145935,0.035242438316345215,1.8996261358261108,0.03568454086780548,0.04985169470310211,-0.0207904173342488,-0.1623178454261076,0.013923857480735435,1.59246967269398,-0.007438773174639479,-0.005149919890135024,-0.032997634851605895,0.044784668665929554
1777067797.703061,-0.088326096534729,0.6051830649375916,-0.014537513256072998,-0.1861000657081604,0.036208152770996094,1.90455162525177,0.023471102118492126,0.049944919347763066,-0.0207904173342488,-0.1619363698786902,0.013923857480735435,1.59246967269398,-0.007438773174639479,-0.005149919890135024,-0.032997634851605895,0.044784668665929554
1777067797.7368388,-0.09094613790512085,0.6053672432899475,-0.02106630802154541,-0.18880802392959595,0.029636144638061523,1.8908958435058594,0.02524559199810028,0.05,-0.0207904173342488,-0.1619363698786902,0.013923857480735435,1.59246967269398,-0.007438773174639479,-0.005149919890135024,-0.032997634851605895,0.044784668665929554
1777067797.7697585,-0.08987754583358765,0.6101784110069275,-0.02613121271133423,-0.18121778964996338,0.031622231006622314,1.9125851392745972,0.027071118354797363,0.049869400262832646,-0.0207904173342488,-0.1619363698786902,0.013923857480735435,1.59246967269398,-0.007438773174639479,-0.005149919890135024,-0.032997634851605895,0.044784668665929554
1777067797.8032458,-0.09290394186973572,0.6045154929161072,-0.028342723846435547,-0.18915694952011108,0.03417181968688965,1.8909285068511963,0.02972497045993805,0.04987407624721527,-0.0207904173342488,-0.1623178454261076,0.013923857480735435,1.59246967269398,-0.007438773174639479,-0.005149919890135024,-0.032997634851605895,0.044784668665929554
1777067797.8373163,-0.09208053350448608,0.5877792239189148,-0.020293831825256348,-0.18723243474960327,0.0297318696975708,1.903351902961731,0.021094605326652527,0.04983096718788147,-0.0207904173342488,-0.1619363698786902,0.013923857480735435,1.59246967269398,-0.007438773174639479,-0.005149919890135024,-0.032997634851605895,0.044784668665929554
1777067797.8697357,-0.09309005737304688,0.596775472164154,-0.03167194128036499,-0.18971723318099976,0.02589130401611328,1.882609248161316,0.0289422869682312,0.04992895722389221,-0.0207904173342488,-0.1619363698786902,0.013923857480735435,1.59246967269398,-0.007438773174639479,-0.005149919890135024,-0.032997634851605895,0.044784668665929554
1777067797.9030654,-0.09204408526420593,0.588635265827179,-0.02901846170425415,-0.18265819549560547,0.03322118520736694,1.9068011045455933,0.026795774698257446,0.049698939919471746,-0.0207904173342488,-0.1623178454261076,0.013923857480735435,1.59246967269398,-0.007438773174639479,-0.005149919890135024,-0.032997634851605895,0.044784668665929554
1777067797.936868,-0.09390950202941895,0.5927245020866394,-0.026693999767303467,-0.1832239031791687,0.02663254737854004,1.8833091259002686,0.0247182697057724,0.05,-0.0207904173342488,-0.1623178454261076,0.013923857480735435,1.59246967269398,-0.007438773174639479,-0.005149919890135024,-0.032997634851605895,0.044784668665929554
1777067797.9699323,-0.0935434103012085,0.5797839760780334,-0.02976304292678833,-0.18370896577835083,0.025722205638885498,1.9035409688949585,0.02146102488040924,0.04996574819087982,-0.0207904173342488,-0.1623178454261076,0.013923857480735435,1.59246967269398,-0.007438773174639479,-0.005149919890135024,-0.032997634851605895,0.044784668665929554
1777067798.0030715,-0.09467747807502747,0.583623468875885,-0.0316774845123291,-0.180938720703125,0.023303747177124023,1.8866418600082397,0.02762928605079651,0.05,-0.0207904173342488,-0.1623178454261076,0.013923857480735435,1.59246967269398,-0.007438773174639479,-0.005149919890135024,-0.032997634851605895,0.044784668665929554
1777067798.036861,-0.09334146976470947,0.5762999653816223,-0.03247356414794922,-0.17250096797943115,0.022558152675628662,1.8977282047271729,0.022058188915252686,0.05,-0.0207904173342488,-0.1619363698786902,0.013923857480735435,1.59246967269398,-0.007438773174639479,-0.005149919890135024,-0.032997634851605895,0.044784668665929554
1777067798.0697496,-0.09554234147071838,0.5851355195045471,-0.03765386343002319,-0.18107539415359497,0.024833619594573975,1.8823188543319702,0.024387434124946594,0.05,-0.02040894178683139,-0.1623178454261076,0.013923857480735435,1.59246967269398,-0.007438773174639479,-0.005149919890135024,-0.032997634851605895,0.044784668665929554
1777067798.1030672,-0.0939679741859436,0.5704806447029114,-0.037170588970184326,-0.1752285361289978,0.022169768810272217,1.9021795988082886,0.02032427489757538,0.05,-0.0207904173342488,-0.1623178454261076,0.013923857480735435,1.59246967269398,-0.007438773174639479,-0.005149919890135024,-0.033379110399023304,0.044784668665929554
1777067798.1369016,-0.09578448534011841,0.5696815848350525,-0.04305940866470337,-0.17644405364990234,0.015237867832183838,1.8780252933502197,0.027263924479484558,0.05,-0.0207904173342488,-0.1623178454261076,0.013923857480735435,1.59246967269398,-0.007438773174639479,-0.005149919890135024,-0.032997634851605895,0.044784668665929554
1777067798.169844,-0.09555605053901672,0.5628499388694763,-0.04194366931915283,-0.16508030891418457,0.02244502305984497,1.894606351852417,0.018166854977607727,0.04989429414272309,-0.0207904173342488,-0.1623178454261076,0.013923857480735435,1.59246967269398,-0.007438773174639479,-0.005149919890135024,-0.032997634851605895,0.044784668665929554
1777067798.202972,-0.09636849164962769,0.5615355372428894,-0.04817467927932739,-0.17360413074493408,0.014688491821289062,1.8821057081222534,0.02270221710205078,0.05,-0.0207904173342488,-0.1623178454261076,0.013923857480735435,1.59246967269398,-0.007438773174639479,-0.005149919890135024,-0.032997634851605895,0.044784668665929554
1777067798.2368298,-0.09528189897537231,0.550710141658783,-0.043232083320617676,-0.16895222663879395,0.020212233066558838,1.908353328704834,0.018475010991096497,0.05,-0.0207904173342488,-0.1623178454261076,0.013923857480735435,1.59246967269398,-0.007438773174639479,-0.005149919890135024,-0.032997634851605895,0.044784668665929554
1777067798.2697942,-0.09596282243728638,0.5505685210227966,-0.04699748754501343,-0.1736087203025818,0.01867896318435669,1.8823261260986328,0.01989501714706421,0.04999945759773255,-0.0207904173342488,-0.1623178454261076,0.013923857480735435,1.59246967269398,-0.007438773174639479,-0.005149919890135024,-0.032997634851605895,0.044784668665929554
1777067798.3032312,-0.09404489398002625,0.544423520565033,-0.04818522930145264,-0.16953015327453613,0.021657228469848633,1.9003931283950806,0.01749405264854431,0.05,-0.0207904173342488,-0.1623178454261076,0.013923857480735435,1.59246967269398,-0.007438773174639479,-0.005149919890135024,-0.032997634851605895,0.044784668665929554
1777067798.3367827,-0.09532499313354492,0.5441927313804626,-0.051446497440338135,-0.1732739806175232,0.0165255069732666,1.8914170265197754,0.02361033856868744,0.05,-0.0207904173342488,-0.1619363698786902,0.013923857480735435,1.59246967269398,-0.007438773174639479,-0.005149919890135024,-0.032997634851605895,0.044784668665929554
1777067798.369764,-0.09377768635749817,0.5294949412345886,-0.04654252529144287,-0.17283761501312256,0.02008599042892456,1.9155585765838623,0.016311123967170715,0.05,-0.0207904173342488,-0.1619363698786902,0.013923857480735435,1.59246967269398,-0.007438773174639479,-0.005149919890135024,-0.032997634851605895,0.044784668665929554
1777067798.4029772,-0.09473517537117004,0.5243093371391296,-0.055149197578430176,-0.16915857791900635,0.01677525043487549,1.9012184143066406,0.01492851972579956,0.05,-0.0207904173342488,-0.1619363698786902,0.013923857480735435,1.59246967269398,-0.007438773174639479,-0.005149919890135024,-0.032997634851605895,0.044784668665929554
1777067798.4367816,-0.09611725807189941,0.5106820464134216,-0.05323845148086548,-0.1664745807647705,0.02922677993774414,1.9140665531158447,0.015683934092521667,0.05,-0.0207904173342488,-0.1623178454261076,0.013923857480735435,1.59246967269398,-0.007438773174639479,-0.005149919890135024,-0.032997634851605895,0.044784668665929554
1777067798.4698472,-0.09813684225082397,0.5040190815925598,-0.06051832437515259,-0.16990453004837036,0.019644856452941895,1.8967335224151611,0.020601347088813782,0.049844938516616824,-0.0207904173342488,-0.1623178454261076,0.013923857480735435,1.59246967269398,-0.007438773174639479,-0.005149919890135024,-0.032997634851605895,0.044784668665929554
1777067798.5029707,-0.09585276246070862,0.48643821477890015,-0.05397158861160278,-0.16152846813201904,0.02710956335067749,1.92998206615448,0.023089483380317688,0.05,-0.0207904173342488,-0.1619363698786902,0.013923857480735435,1.59246967269398,-0.007438773174639479,-0.005149919890135024,-0.032997634851605895,0.044784668665929554
1777067798.5368233,-0.0980265736579895,0.4907607436180115,-0.06247919797897339,-0.16231930255889893,0.022580742835998535,1.908008098602295,0.016459673643112183,0.05,-0.02040894178683139,-0.1623178454261076,0.013923857480735435,1.59246967269398,-0.007438773174639479,-0.005149919890135024,-0.032997634851605895,0.044784668665929554
1777067798.569739,-0.09634208679199219,0.4739707112312317,-0.06667804718017578,-0.15647852420806885,0.017242074012756348,1.922464370727539,0.021893993020057678,0.05,-0.0207904173342488,-0.1619363698786902,0.013923857480735435,1.59246967269398,-0.007438773174639479,-0.005149919890135024,-0.032997634851605895,0.044784668665929554
1777067798.6036854,-0.09679973125457764,0.4643980860710144,-0.0745621919631958,-0.14324253797531128,0.008485078811645508,1.9070206880569458,0.02223217487335205,0.05,-0.0207904173342488,-0.1619363698786902,0.013923857480735435,1.59246967269398,-0.007438773174639479,-0.005149919890135024,-0.032997634851605895,0.044784668665929554
1777067798.6370046,-0.09703841805458069,0.42462342977523804,-0.09123694896697998,-0.12992501258850098,0.020311415195465088,1.9024931192398071,0.023094207048416138,0.05,-0.0207904173342488,-0.1619363698786902,0.013923857480735435,1.59246967269398,-0.007438773174639479,-0.005149919890135024,-0.032997634851605895,0.044784668665929554
1777067798.6696675,-0.0974271297454834,0.42986541986465454,-0.07596832513809204,-0.12751048803329468,0.015958547592163086,1.9097915887832642,0.05345258116722107,0.04994850754737854,-0.0207904173342488,-0.1619363698786902,0.013923857480735435,1.59246967269398,-0.007438773174639479,-0.005149919890135024,-0.032997634851605895,0.044784668665929554
1777067798.7030213,-0.09918197989463806,0.37179237604141235,-0.0660591721534729,-0.12741303443908691,0.022264540195465088,1.8945891857147217,0.03021027147769928,0.04944361448287964,-0.0207904173342488,-0.1623178454261076,0.013923857480735435,1.59246967269398,-0.007438773174639479,-0.005149919890135024,-0.032997634851605895,0.044784668665929554
1777067798.736714,-0.10102525353431702,0.34534817934036255,-0.09405666589736938,-0.13460737466812134,0.013450145721435547,1.8751932382583618,0.042715758085250854,0.04888139963150025,-0.0207904173342488,-0.1623178454261076,0.013923857480735435,1.59246967269398,-0.007438773174639479,-0.005149919890135024,-0.032997634851605895,0.044784668665929554
1777067801.5759878,0.003957271575927734,0.7060512900352478,-0.006335914134979248,-0.34979209303855896,0.13795173168182373,1.9801794290542603,0.07816861569881439,0.04942620396614075,-0.0207904173342488,-0.1623178454261076,0.013923857480735435,1.59246967269398,-0.007438773174639479,-0.005149919890135024,-0.032997634851605895,0.044784668665929554
1777067801.5796857,0.005051553249359131,0.7060512900352478,0.03213918209075928,-0.3204655051231384,0.1599932312965393,1.9500375986099243,0.037366628646850586,0.049303811788558964,-0.0207904173342488,-0.1623178454261076,0.013923857480735435,1.59246967269398,-0.007438773174639479,-0.005149919890135024,-0.032997634851605895,0.044784668665929554
1777067801.603755,0.010586977005004883,0.7060512900352478,-0.011450529098510742,-0.3068568706512451,0.1602904200553894,1.9626213312149048,0.04206295311450958,0.049372702836990356,-0.0207904173342488,-0.1623178454261076,0.013923857480735435,1.59246967269398,-0.007438773174639479,-0.005149919890135024,-0.032997634851605895,0.044784668665929554
1777067801.6365142,0.008558928966522217,0.7060512900352478,-0.0007392168045043945,-0.32339540123939514,0.16409802436828613,1.949539065361023,0.06292085349559784,0.04887688755989075,-0.0207904173342488,-0.1619363698786902,0.013923857480735435,1.59246967269398,-0.007438773174639479,-0.005149919890135024,-0.032997634851605895,0.044784668665929554
1777067801.669862,0.0052987635135650635,0.7060512900352478,0.009098827838897705,-0.3162314295768738,0.185194194316864,1.963362216949463,0.06132800877094269,0.049725699424743655,-0.0207904173342488,-0.1619363698786902,0.013923857480735435,1.59246967269398,-0.00705729762722207,-0.005149919890135024,-0.032997634851605895,0.044784668665929554
1777067801.7037194,0.005881637334823608,0.7060512900352478,0.008105158805847168,-0.2987174391746521,0.17412251234054565,1.9531117677688599,0.0804021805524826,0.04999501705169678,-0.0207904173342488,-0.1623178454261076,0.013923857480735435,1.59246967269398,-0.007438773174639479,-0.005149919890135024,-0.032997634851605895,0.044784668665929554
1777067801.7364137,0.0036291182041168213,0.7060512900352478,-0.0023490190505981445,-0.2988699972629547,0.17501968145370483,1.955402135848999,0.06403525173664093,0.04953089356422424,-0.0207904173342488,-0.1623178454261076,0.013923857480735435,1.59246967269398,-0.007438773174639479,-0.005149919890135024,-0.032997634851605895,0.044784668665929554
1777067801.769818,0.0005263090133666992,0.7060512900352478,0.0033357739448547363,-0.291747123003006,0.17364907264709473,1.9590905904769897,0.07037563621997833,0.05,-0.0207904173342488,-0.1619363698786902,0.013923857480735435,1.59246967269398,-0.007438773174639479,-0.005149919890135024,-0.032997634851605895,0.044784668665929554
1777067801.8038375,-0.0022122561931610107,0.7060512900352478,-0.008157074451446533,-0.286384642124176,0.1693693995475769,1.9477829933166504,0.07697568833827972,0.05,-0.0207904173342488,-0.1619363698786902,0.013923857480735435,1.59246967269398,-0.007438773174639479,-0.005149919890135024,-0.032997634851605895,0.044784668665929554
1777067801.8363264,-0.005189567804336548,0.7060512900352478,0.000596165657043457,-0.27412959933280945,0.15799617767333984,1.9557770490646362,0.0721338540315628,0.05,-0.0207904173342488,-0.1619363698786902,0.013923857480735435,1.59246967269398,-0.007438773174639479,-0.005149919890135024,-0.032997634851605895,0.044784668665929554
1777067801.8698423,-0.006479173898696899,0.7060512900352478,-0.005730807781219482,-0.2633177638053894,0.15457606315612793,1.9430934190750122,0.07527847588062286,0.04984692335128785,-0.0207904173342488,-0.1623178454261076,0.013923857480735435,1.59246967269398,-0.007438773174639479,-0.005149919890135024,-0.032997634851605895,0.044784668665929554
1777067801.9033294,-0.010648548603057861,0.7060512900352478,-0.0039958953857421875,-0.27135857939720154,0.15448123216629028,1.9528672695159912,0.08767934143543243,0.05,-0.0207904173342488,-0.1623178454261076,0.013923857480735435,1.59246967269398,-0.007438773174639479,-0.005149919890135024,-0.032997634851605895,0.044784668665929554
1777067801.9364808,-0.010809451341629028,0.7060512900352478,0.0008133053779602051,-0.2632686495780945,0.15328854322433472,1.950480341911316,0.074691042304039,0.05,-0.0207904173342488,-0.1619363698786902,0.013923857480735435,1.59246967269398,-0.007438773174639479,-0.005149919890135024,-0.032997634851605895,0.044784668665929554
1777067801.9698024,-0.01575779914855957,0.7060512900352478,0.004011869430541992,-0.26552650332450867,0.15588587522506714,1.9387210607528687,0.08032961189746857,0.049958875775337225,-0.0207904173342488,-0.1623178454261076,0.013923857480735435,1.59246967269398,-0.007438773174639479,-0.005149919890135024,-0.032997634851605895,0.044784668665929554
1777067802.0036972,-0.014364868402481079,0.7060512900352478,0.004294693470001221,-0.25398266315460205,0.14466971158981323,1.9476805925369263,0.08145450055599213,0.04911153018474579,-0.0207904173342488,-0.1619363698786902,0.013923857480735435,1.59246967269398,-0.007438773174639479,-0.005149919890135024,-0.032997634851605895,0.044784668665929554
1777067802.0364888,-0.018622517585754395,0.7060512900352478,-0.0027060508728027344,-0.2617112696170807,0.14291507005691528,1.941852331161499,0.08624802529811859,0.04962337017059326,-0.0207904173342488,-0.1619363698786902,0.013923857480735435,1.59246967269398,-0.007438773174639479,-0.005149919890135024,-0.032997634851605895,0.044784668665929554
1777067802.0697906,-0.021805793046951294,0.7060512900352478,-0.001943051815032959,-0.2582717537879944,0.1420954465866089,1.9495038986206055,0.08135102689266205,0.04952781200408936,-0.0207904173342488,-0.1623178454261076,0.013923857480735435,1.59246967269398,-0.007438773174639479,-0.005149919890135024,-0.032997634851605895,0.044784668665929554
1777067802.1034644,-0.023939549922943115,0.7060512900352478,0.00042933225631713867,-0.25436708331108093,0.13410091400146484,1.936274766921997,0.08145339787006378,0.049744015932083135,-0.0207904173342488,-0.1619363698786902,0.013923857480735435,1.59246967269398,-0.007438773174639479,-0.005149919890135024,-0.032997634851605895,0.044784668665929554
1777067802.13634,-0.023814678192138672,0.7060512900352478,-0.0018291473388671875,-0.24024122953414917,0.1310320496559143,1.9319621324539185,0.07821322977542877,0.049366664886474614,-0.02040894178683139,-0.1619363698786902,0.013923857480735435,1.59246967269398,-0.007438773174639479,-0.005149919890135024,-0.032997634851605895,0.044784668665929554
1777067802.1697102,-0.028392016887664795,0.7060512900352478,-0.005191922187805176,-0.24335715174674988,0.13256549835205078,1.9312713146209717,0.0824655145406723,0.04961228966712952,-0.0207904173342488,-0.1623178454261076,0.013923857480735435,1.59246967269398,-0.00705729762722207,-0.005149919890135024,-0.032997634851605895,0.044784668665929554
1777067802.2033908,-0.030976027250289917,0.7060512900352478,-0.004315614700317383,-0.23872128129005432,0.12680655717849731,1.940032958984375,0.07679714262485504,0.049416595697402955,-0.02040894178683139,-0.1623178454261076,0.013923857480735435,1.59246967269398,-0.007438773174639479,-0.005149919890135024,-0.032997634851605895,0.044784668665929554
1777067802.2364056,-0.031940191984176636,0.7060512900352478,-0.002053558826446533,-0.23371952772140503,0.12317788600921631,1.9233521223068237,0.07472707331180573,0.04962692856788636,-0.0207904173342488,-0.1619363698786902,0.013923857480735435,1.59246967269398,-0.007438773174639479,-0.005149919890135024,-0.032997634851605895,0.044784668665929554
1777067802.2697008,-0.034521281719207764,0.7060512900352478,-0.00019693374633789062,-0.22940605878829956,0.1195191740989685,1.94056236743927,0.07034121453762054,0.04914140403270722,-0.0207904173342488,-0.1623178454261076,0.013923857480735435,1.59246967269398,-0.007438773174639479,-0.005149919890135024,-0.032997634851605895,0.044784668665929554
1777067802.3033526,-0.03815627098083496,0.7060512900352478,0.0020847320556640625,-0.227053701877594,0.11187225580215454,1.9391707181930542,0.07913057506084442,0.04984628856182099,-0.0207904173342488,-0.1623178454261076,0.013923857480735435,1.59246967269398,-0.007438773174639479,-0.005149919890135024,-0.032997634851605895,0.044784668665929554
1777067802.336561,-0.03904205560684204,0.7060512900352478,0.005735635757446289,-0.23001503944396973,0.11490857601165771,1.9606709480285645,0.07112635672092438,0.05,-0.0207904173342488,-0.1619363698786902,0.013923857480735435,1.59246967269398,-0.007438773174639479,-0.005149919890135024,-0.032997634851605895,0.044784668665929554
1777067802.3697464,-0.042534977197647095,0.7060512900352478,0.009087443351745605,-0.22629505395889282,0.11599975824356079,1.932846188545227,0.06290929019451141,0.05,-0.0207904173342488,-0.1619363698786902,0.013923857480735435,1.59246967269398,-0.007438773174639479,-0.005149919890135024,-0.032997634851605895,0.044784668665929554
1777067802.403327,-0.04329255223274231,0.7060512900352478,-0.00180816650390625,-0.22014957666397095,0.11043202877044678,1.9357417821884155,0.06234849989414215,0.04969806075096131,-0.0207904173342488,-0.1619363698786902,0.013923857480735435,1.59246967269398,-0.007438773174639479,-0.005149919890135024,-0.032997634851605895,0.044784668665929554
1777067802.4363778,-0.04824662208557129,0.7060512900352478,0.004823863506317139,-0.22990906238555908,0.10461723804473877,1.943571925163269,0.06090860068798065,0.04983055591583252,-0.0207904173342488,-0.1623178454261076,0.013923857480735435,1.59246967269398,-0.007438773174639479,-0.005149919890135024,-0.032997634851605895,0.044784668665929554
1777067802.4697547,-0.05092993378639221,0.7060512900352478,0.004879176616668701,-0.23151087760925293,0.10379403829574585,1.9501230716705322,0.05577684938907623,0.04943305253982544,-0.0207904173342488,-0.1619363698786902,0.013923857480735435,1.59246967269398,-0.007438773174639479,-0.005149919890135024,-0.032997634851605895,0.044784668665929554
1777067802.503357,-0.053225964307785034,0.7060512900352478,0.005973219871520996,-0.2295718789100647,0.09598284959793091,1.9465632438659668,0.058448389172554016,0.04976735711097718,-0.0207904173342488,-0.1619363698786902,0.013923857480735435,1.59246967269398,-0.007438773174639479,-0.005149919890135024,-0.032997634851605895,0.044784668665929554
1777067802.5365794,-0.05534747242927551,0.7060512900352478,0.011307775974273682,-0.2220226526260376,0.10086566209793091,1.9644473791122437,0.04490695893764496,0.0492867648601532,-0.0207904173342488,-0.1619363698786902,0.013923857480735435,1.59246967269398,-0.007438773174639479,-0.005149919890135024,-0.032997634851605895,0.044784668665929554
1777067802.5697381,-0.06071120500564575,0.7060512900352478,0.0020319223403930664,-0.22718828916549683,0.09634482860565186,1.9498493671417236,0.05247095227241516,0.04961782693862915,-0.0207904173342488,-0.1619363698786902,0.013923857480735435,1.59246967269398,-0.007438773174639479,-0.005149919890135024,-0.032997634851605895,0.044784668665929554
1777067802.6035624,-0.05947592854499817,0.7060512900352478,0.002123236656188965,-0.2221500277519226,0.08844506740570068,1.9697465896606445,0.04426790773868561,0.04974274039268494,-0.0207904173342488,-0.1623178454261076,0.013923857480735435,1.59246967269398,-0.007438773174639479,-0.005149919890135024,-0.032997634851605895,0.044784668665929554
1777067802.6365192,-0.06130838394165039,0.7060512900352478,-0.0014320611953735352,-0.21629118919372559,0.09104430675506592,1.9451169967651367,0.04042352735996246,0.049752438068389894,-0.0207904173342488,-0.1619363698786902,0.013923857480735435,1.59246967269398,-0.007438773174639479,-0.005149919890135024,-0.033379110399023304,0.044784668665929554
1777067802.6697977,-0.06251636147499084,0.7060512900352478,-0.008601188659667969,-0.2106277346611023,0.09300369024276733,1.9579752683639526,0.03603903949260712,0.04937793016433716,-0.0207904173342488,-0.1623178454261076,0.013923857480735435,1.59246967269398,-0.007438773174639479,-0.005149919890135024,-0.032997634851605895,0.044784668665929554
1777067802.7036312,-0.06509888172149658,0.7060512900352478,-0.008264303207397461,-0.2062092423439026,0.08205986022949219,1.9568952322006226,0.042839497327804565,0.049664610624313356,-0.0207904173342488,-0.1623178454261076,0.013923857480735435,1.59246967269398,-0.007438773174639479,-0.005149919890135024,-0.033379110399023304,0.044784668665929554
1777067802.7365785,-0.0654374361038208,0.6991227269172668,-0.008313596248626709,-0.2071089744567871,0.08335059881210327,1.957528829574585,0.03217525780200958,0.049404004216194154,-0.0207904173342488,-0.1623178454261076,0.013923857480735435,1.59246967269398,-0.007438773174639479,-0.005149919890135024,-0.032997634851605895,0.044784668665929554
1777067802.7698293,-0.07005152106285095,0.7051815390586853,-0.014585554599761963,-0.20587307214736938,0.08000129461288452,1.940854787826538,0.033460184931755066,0.04960696697235108,-0.0207904173342488,-0.1619363698786902,0.013923857480735435,1.59246967269398,-0.007438773174639479,-0.005149919890135024,-0.032997634851605895,0.044784668665929554
1777067802.8034108,-0.06906211376190186,0.6945753693580627,-0.012735962867736816,-0.19703322649002075,0.08101624250411987,1.9514570236206055,0.026889309287071228,0.04943443536758423,-0.0207904173342488,-0.1623178454261076,0.013923857480735435,1.59246967269398,-0.007438773174639479,-0.005149919890135024,-0.032997634851605895,0.044784668665929554
1777067802.8364296,-0.07266893982887268,0.6924198269844055,-0.017112016677856445,-0.20179933309555054,0.07884365320205688,1.9355387687683105,0.02438955008983612,0.04995202422142029,-0.0207904173342488,-0.1623178454261076,0.013923857480735435,1.59246967269398,-0.007438773174639479,-0.005149919890135024,-0.032997634851605895,0.044784668665929554
1777067802.8698337,-0.07203987240791321,0.6730216145515442,-0.015968680381774902,-0.20239603519439697,0.07309931516647339,1.9551888704299927,0.023120999336242676,0.04992587268352509,-0.0207904173342488,-0.1619363698786902,0.013923857480735435,1.59246967269398,-0.007438773174639479,-0.005149919890135024,-0.032997634851605895,0.044784668665929554
1777067802.9035265,-0.07311451435089111,0.6755730509757996,-0.02248215675354004,-0.20057010650634766,0.07149219512939453,1.9298365116119385,0.026062607765197754,0.04988399744033814,-0.0207904173342488,-0.1623178454261076,0.013923857480735435,1.59246967269398,-0.007438773174639479,-0.005149919890135024,-0.032997634851605895,0.044784668665929554
1777067802.936688,-0.07401713728904724,0.67071133852005,-0.022186338901519775,-0.19855767488479614,0.07023763656616211,1.9401867389678955,0.023813292384147644,0.04935376942157746,-0.0207904173342488,-0.1623178454261076,0.013923857480735435,1.59246967269398,-0.007438773174639479,-0.005149919890135024,-0.032997634851605895,0.044784668665929554
1777067802.9698637,-0.07710817456245422,0.6667926907539368,-0.02644026279449463,-0.20303624868392944,0.0659826397895813,1.9105923175811768,0.022197231650352478,0.04976269900798798,-0.0207904173342488,-0.1623178454261076,0.013923857480735435,1.59246967269398,-0.007438773174639479,-0.005149919890135024,-0.032997634851605895,0.044784668665929554
1777067803.0044365,-0.07632803916931152,0.6534613966941833,-0.025637149810791016,-0.20260465145111084,0.06600171327590942,1.9351509809494019,0.01942048966884613,0.04982726573944092,-0.0207904173342488,-0.1619363698786902,0.013923857480735435,1.59246967269398,-0.00705729762722207,-0.005149919890135024,-0.032997634851605895,0.044784668665929554
1777067803.0370874,-0.08044508099555969,0.6592504382133484,-0.027803540229797363,-0.202165424823761,0.05686765909194946,1.918092966079712,0.019159972667694092,0.05,-0.0207904173342488,-0.1623178454261076,0.013923857480735435,1.59246967269398,-0.007438773174639479,-0.005149919890135024,-0.032997634851605895,0.044784668665929554
1777067803.0704763,-0.08007442951202393,0.646006166934967,-0.03099226951599121,-0.1964983344078064,0.05613243579864502,1.9374841451644897,0.017274945974349976,0.049742442369461064,-0.0207904173342488,-0.1623178454261076,0.013923857480735435,1.59246967269398,-0.007438773174639479,-0.005149919890135024,-0.032997634851605895,0.044784668665929554
1777067803.1036258,-0.08442717790603638,0.6521010994911194,-0.030475378036499023,-0.19518834352493286,0.053232014179229736,1.9104307889938354,0.026835307478904724,0.04996439814567566,-0.0207904173342488,-0.1623178454261076,0.013923857480735435,1.59246967269398,-0.007438773174639479,-0.005149919890135024,-0.032997634851605895,0.044784668665929554
1777067803.136412,-0.08174318075180054,0.6403413414955139,-0.024121344089508057,-0.18888843059539795,0.050237834453582764,1.9265305995941162,0.019555479288101196,0.049854978919029236,-0.0207904173342488,-0.1623178454261076,0.013923857480735435,1.59246967269398,-0.007438773174639479,-0.005149919890135024,-0.032997634851605895,0.044784668665929554
1777067803.1697283,-0.08379733562469482,0.6327458024024963,-0.02661430835723877,-0.19121676683425903,0.051519572734832764,1.9088549613952637,0.019525855779647827,0.05,-0.0207904173342488,-0.1623178454261076,0.013923857480735435,1.59246967269398,-0.007438773174639479,-0.005149919890135024,-0.032997634851605895,0.044784668665929554
1777067803.2035334,-0.08316031098365784,0.6301507353782654,-0.02932816743850708,-0.18185502290725708,0.05455845594406128,1.9238104820251465,0.019564896821975708,0.04980239570140839,-0.0207904173342488,-0.1619363698786902,0.013923857480735435,1.59246967269398,-0.007438773174639479,-0.005149919890135024,-0.032997634851605895,0.044784668665929554
1777067803.2368932,-0.08731207251548767,0.633863627910614,-0.031993985176086426,-0.18318837881088257,0.0464974045753479,1.901136040687561,0.02834738790988922,0.05,-0.0207904173342488,-0.1619363698786902,0.013923857480735435,1.59246967269398,-0.007438773174639479,-0.005149919890135024,-0.032997634851605895,0.044784668665929554
1777067803.269801,-0.08756259083747864,0.6218563914299011,-0.032695472240448,-0.1861211061477661,0.041790544986724854,1.9306985139846802,0.01747184991836548,0.049851214885711675,-0.0207904173342488,-0.1619363698786902,0.013923857480735435,1.59246967269398,-0.007438773174639479,-0.005149919890135024,-0.032997634851605895,0.044784668665929554
1777067803.3032937,-0.08797115087509155,0.6245965361595154,-0.03294801712036133,-0.18733948469161987,0.03970301151275635,1.9070956707000732,0.026174619793891907,0.04999763369560242,-0.0207904173342488,-0.1623178454261076,0.013923857480735435,1.59246967269398,-0.007438773174639479,-0.005149919890135024,-0.032997634851605895,0.044784668665929554
1777067803.3365624,-0.09056049585342407,0.6132082343101501,-0.02910435199737549,-0.18641281127929688,0.03825491666793823,1.911319613456726,0.014308527112007141,0.0497729629278183,-0.0207904173342488,-0.1623178454261076,0.013923857480735435,1.59246967269398,-0.007438773174639479,-0.005149919890135024,-0.032997634851605895,0.044784668665929554
1777067803.3698978,-0.09089285135269165,0.610198438167572,-0.026818394660949707,-0.19371038675308228,0.038044869899749756,1.8907077312469482,0.02614213526248932,0.04995810389518738,-0.0207904173342488,-0.1623178454261076,0.013923857480735435,1.59246967269398,-0.007438773174639479,-0.005149919890135024,-0.032997634851605895,0.044784668665929554
1777067803.4033635,-0.09063157439231873,0.6076635718345642,-0.023842453956604004,-0.18903368711471558,0.034314870834350586,1.91062331199646,0.014934450387954712,0.049962371587753296,-0.0207904173342488,-0.1619363698786902,0.013923857480735435,1.59246967269398,-0.007438773174639479,-0.005149919890135024,-0.032997634851605895,0.044784668665929554
1777067803.4364421,-0.09262910485267639,0.6061716675758362,-0.03254425525665283,-0.19202899932861328,0.02976292371749878,1.8947433233261108,0.02354295551776886,0.05,-0.0207904173342488,-0.1623178454261076,0.013923857480735435,1.59246967269398,-0.007438773174639479,-0.005149919890135024,-0.032997634851605895,0.044784668665929554
1777067803.4697728,-0.09350299835205078,0.5939050316810608,-0.03286707401275635,-0.18280553817749023,0.02757549285888672,1.9069511890411377,0.019982188940048218,0.04957911968231202,-0.0207904173342488,-0.1619363698786902,0.013923857480735435,1.59246967269398,-0.007438773174639479,-0.005149919890135024,-0.032997634851605895,0.044784668665929554
1777067803.5033772,-0.09442546963691711,0.5927882790565491,-0.03948324918746948,-0.1880735158920288,0.021378636360168457,1.882102370262146,0.021351516246795654,0.04969010055065155,-0.0207904173342488,-0.1623178454261076,0.013923857480735435,1.59246967269398,-0.00705729762722207,-0.005149919890135024,-0.032997634851605895,0.044784668665929554
1777067803.5365045,-0.09475764632225037,0.5821599364280701,-0.036185264587402344,-0.184489905834198,0.02797234058380127,1.9068063497543335,0.01828712224960327,0.04980021119117737,-0.0207904173342488,-0.1623178454261076,0.013923857480735435,1.59246967269398,-0.007438773174639479,-0.005149919890135024,-0.032997634851605895,0.044784668665929554
1777067803.5698597,-0.09457260370254517,0.585928738117218,-0.0410732626914978,-0.18368130922317505,0.021725952625274658,1.8840746879577637,0.018476754426956177,0.049929872155189514,-0.0207904173342488,-0.1619363698786902,0.013923857480735435,1.59246967269398,-0.007438773174639479,-0.005149919890135024,-0.032997634851605895,0.044784668665929554
1777067803.6034076,-0.09485986828804016,0.579163134098053,-0.04394346475601196,-0.17494720220565796,0.01709538698196411,1.9078818559646606,0.017563074827194214,0.049951362609863284,-0.0207904173342488,-0.1623178454261076,0.013923857480735435,1.59246967269398,-0.007438773174639479,-0.005149919890135024,-0.032997634851605895,0.044784668665929554
1777067803.636425,-0.09660440683364868,0.5796850323677063,-0.050067126750946045,-0.17788457870483398,0.01483529806137085,1.8895875215530396,0.024641960859298706,0.0499811589717865,-0.0207904173342488,-0.1619363698786902,0.013923857480735435,1.59246967269398,-0.007438773174639479,-0.005149919890135024,-0.032997634851605895,0.044784668665929554
1777067803.6697924,-0.09658229351043701,0.5742989182472229,-0.04838097095489502,-0.17071139812469482,0.012513160705566406,1.9128371477127075,0.015826016664505005,0.049962157011032106,-0.0207904173342488,-0.1619363698786902,0.013923857480735435,1.59246967269398,-0.007438773174639479,-0.005149919890135024,-0.032997634851605895,0.044784668665929554
1777067803.7034996,-0.0961046814918518,0.5777677893638611,-0.046519696712493896,-0.16985845565795898,0.01313704252243042,1.896540880203247,0.019305959343910217,0.05,-0.0207904173342488,-0.1623178454261076,0.013923857480735435,1.59246967269398,-0.007438773174639479,-0.005149919890135024,-0.032997634851605895,0.044784668665929554
1777067803.7363298,-0.09747526049613953,0.5740719437599182,-0.04565316438674927,-0.16731220483779907,0.014989495277404785,1.9144153594970703,0.014018997550010681,0.04968129396438599,-0.0207904173342488,-0.1623178454261076,0.013923857480735435,1.59246967269398,-0.007438773174639479,-0.005149919890135024,-0.033379110399023304,0.044784668665929554
1777067803.7696898,-0.09930828213691711,0.5752620100975037,-0.04433184862136841,-0.17309439182281494,0.01267915964126587,1.8928509950637817,0.021815761923789978,0.04973983466625214,-0.0207904173342488,-0.1619363698786902,0.013923857480735435,1.59246967269398,-0.007438773174639479,-0.005149919890135024,-0.032997634851605895,0.044784668665929554
1777067803.8034294,-0.09843769669532776,0.5695459246635437,-0.044229865074157715,-0.17354124784469604,0.013808727264404297,1.9012479782104492,0.014537155628204346,0.04982531666755677,-0.0207904173342488,-0.1623178454261076,0.013923857480735435,1.59246967269398,-0.007438773174639479,-0.005149919890135024,-0.032997634851605895,0.044784668665929554
1777067803.836449,-0.09899312257766724,0.5657724738121033,-0.05090421438217163,-0.17954933643341064,0.013040661811828613,1.88570237159729,0.018550783395767212,0.04976436495780945,-0.0207904173342488,-0.1619363698786902,0.013923857480735435,1.59246967269398,-0.007438773174639479,-0.005149919890135024,-0.032997634851605895,0.044784668665929554
1777067803.8698354,-0.09868654608726501,0.5592827200889587,-0.048804402351379395,-0.17075592279434204,0.01505190134048462,1.8969206809997559,0.014867514371871948,0.049640148878097534,-0.0207904173342488,-0.1619363698786902,0.013923857480735435,1.59246967269398,-0.007438773174639479,-0.005149919890135024,-0.032997634851605895,0.044784668665929554
1777067803.9033952,-0.09990471601486206,0.5633881688117981,-0.054296672344207764,-0.17576050758361816,0.011300384998321533,1.8866674900054932,0.025089025497436523,0.049818143248558044,-0.0207904173342488,-0.1619363698786902,0.013923857480735435,1.59246967269398,-0.007438773174639479,-0.005149919890135024,-0.032997634851605895,0.044784668665929554
1777067803.936453,-0.09884029626846313,0.5560863614082336,-0.04887962341308594,-0.1720317006111145,0.0163152813911438,1.9024630784988403,0.01857072114944458,0.04967352747917175,-0.0207904173342488,-0.1623178454261076,0.013923857480735435,1.59246967269398,-0.007438773174639479,-0.005149919890135024,-0.032997634851605895,0.044784668665929554
1777067803.9697506,-0.10015621781349182,0.5584450364112854,-0.05407369136810303,-0.17452585697174072,0.01351839303970337,1.8773624897003174,0.01867496967315674,0.04988479912281037,-0.02040894178683139,-0.1619363698786902,0.013923857480735435,1.59246967269398,-0.007438773174639479,-0.005149919890135024,-0.032997634851605895,0.044784668665929554
1777067804.004018,-0.1004849374294281,0.5502020716667175,-0.05375462770462036,-0.16480976343154907,0.01129072904586792,1.8943201303482056,0.01970355212688446,0.04980053305625916,-0.0207904173342488,-0.1623178454261076,0.013923857480735435,1.59246967269398,-0.007438773174639479,-0.005149919890135024,-0.032997634851605895,0.044784668665929554
1777067804.0364203,-0.10213425755500793,0.5529689192771912,-0.057293713092803955,-0.1710478663444519,0.011026740074157715,1.8749723434448242,0.024226278066635132,0.04982616901397705,-0.0207904173342488,-0.1619363698786902,0.013923857480735435,1.59246967269398,-0.007438773174639479,-0.005149919890135024,-0.032997634851605895,0.044784668665929554
1777067804.069731,-0.10136586427688599,0.5428428053855896,-0.05550462007522583,-0.17026734352111816,0.009287536144256592,1.8943769931793213,0.020951643586158752,0.04987516105175019,-0.0207904173342488,-0.1619363698786902,0.013923857480735435,1.59246967269398,-0.007438773174639479,-0.005149919890135024,-0.032997634851605895,0.044784668665929554
1777067804.1033177,-0.10196620225906372,0.5435250401496887,-0.05924266576766968,-0.1631898283958435,0.0017363429069519043,1.880806803703308,0.01866917312145233,0.04980865716934205,-0.0207904173342488,-0.1623178454261076,0.013923857480735435,1.59246967269398,-0.007438773174639479,-0.005149919890135024,-0.032997634851605895,0.044784668665929554
1777067804.1364396,-0.10199084877967834,0.5446440577507019,-0.058580100536346436,-0.15588122606277466,0.009718477725982666,1.8996583223342896,0.017905890941619873,0.04940886497497559,-0.0207904173342488,-0.1619363698786902,0.013923857480735435,1.59246967269398,-0.007438773174639479,-0.005149919890135024,-0.032997634851605895,0.044784668665929554
1777067804.169978,-0.1038612425327301,0.5496740937232971,-0.06768190860748291,-0.1587851643562317,0.008733630180358887,1.8788264989852905,0.02567654848098755,0.04932976961135865,-0.0207904173342488,-0.1623178454261076,0.013923857480735435,1.59246967269398,-0.007438773174639479,-0.005149919890135024,-0.032997634851605895,0.044784668665929554
1777067804.203433,-0.10018247365951538,0.5245659947395325,-0.06152951717376709,-0.15499532222747803,0.011418819427490234,1.8918298482894897,0.016250833868980408,0.04953563809394837,-0.0207904173342488,-0.1623178454261076,0.013923857480735435,1.59246967269398,-0.007438773174639479,-0.005149919890135024,-0.032997634851605895,0.044784668665929554
1777067804.2366304,-0.10093235969543457,0.5302324891090393,-0.06955814361572266,-0.155925452709198,0.008332490921020508,1.864892601966858,0.02063775062561035,0.04955486357212067,-0.0207904173342488,-0.1623178454261076,0.013923857480735435,1.59246967269398,-0.007438773174639479,-0.005149919890135024,-0.032997634851605895,0.044784668665929554
1777067804.2699902,-0.10000795125961304,0.5246701836585999,-0.07189798355102539,-0.14763283729553223,0.013660609722137451,1.881119728088379,0.020050525665283203,0.04954366683959961,-0.0207904173342488,-0.1623178454261076,0.013923857480735435,1.59246967269398,-0.007438773174639479,-0.005149919890135024,-0.032997634851605895,0.044784668665929554
1777067804.3035624,-0.10164099931716919,0.5238155722618103,-0.07032960653305054,-0.14848577976226807,0.008277416229248047,1.8676636219024658,0.018246188759803772,0.049798983335495,-0.0207904173342488,-0.1619363698786902,0.013923857480735435,1.59246967269398,-0.007438773174639479,-0.005149919890135024,-0.032997634851605895,0.044784668665929554
1777067804.3368292,-0.10202968120574951,0.5140798687934875,-0.07021540403366089,-0.14941620826721191,0.012026965618133545,1.8871874809265137,0.014739945530891418,0.04982438981533051,-0.0207904173342488,-0.1623178454261076,0.013923857480735435,1.59246967269398,-0.007438773174639479,-0.005149919890135024,-0.032997634851605895,0.044784668665929554
1777067804.3701506,-0.10527104139328003,0.5100509524345398,-0.07440018653869629,-0.1517927050590515,0.006769418716430664,1.8675317764282227,0.02050800621509552,0.0498640775680542,-0.0207904173342488,-0.1623178454261076,0.013923857480735435,1.59246967269398,-0.007438773174639479,-0.005149919890135024,-0.033379110399023304,0.044784668665929554
1777067804.4039264,-0.1048845648765564,0.5080887675285339,-0.07252943515777588,-0.14500164985656738,0.012594401836395264,1.8868792057037354,0.01470901072025299,0.049883365631103516,-0.0207904173342488,-0.1619363698786902,0.013923857480735435,1.59246967269398,-0.007438773174639479,-0.005149919890135024,-0.032997634851605895,0.044784668665929554
1777067804.4368045,-0.10739642381668091,0.5100650191307068,-0.07397401332855225,-0.15439802408218384,0.009521245956420898,1.8714882135391235,0.016139253973960876,0.04976076483726502,-0.0207904173342488,-0.1623178454261076,0.013923857480735435,1.59246967269398,-0.007438773174639479,-0.005149919890135024,-0.032997634851605895,0.044784668665929554
1777067804.4700565,-0.10626566410064697,0.49253004789352417,-0.0691303014755249,-0.1538943648338318,0.00372922420501709,1.8926842212677002,0.014622241258621216,0.05,-0.0207904173342488,-0.1623178454261076,0.013923857480735435,1.59246967269398,-0.007438773174639479,-0.005149919890135024,-0.032997634851605895,0.044784668665929554
1777067804.5033972,-0.10777711868286133,0.4832037091255188,-0.07467496395111084,-0.15059620141983032,-0.004739284515380859,1.8702826499938965,0.01238243281841278,0.049911808967590336,-0.0207904173342488,-0.1619363698786902,0.013923857480735435,1.59246967269398,-0.007438773174639479,-0.005149919890135024,-0.032997634851605895,0.044784668665929554
1777067804.5372915,-0.11059519648551941,0.47854548692703247,-0.07826226949691772,-0.14665555953979492,0.008807778358459473,1.8860888481140137,0.01752161979675293,0.04976167678833008,-0.0207904173342488,-0.1623178454261076,0.013923857480735435,1.59246967269398,-0.007438773174639479,-0.005149919890135024,-0.032997634851605895,0.044784668665929554
